!!!!SEGMENT: pl-cz--ii-188--012_orllowski-michall--missa-ex-g-benedictus.krn
!!!cenid: 17xx:1016
!!!COM: Orłowski, Michał
!!!COM-rismid: pe30020336
!!!CDT: ~1700-~1799
!!!CNT:
!!!OPR: Missa ex G
!!!OTL: Benedictus
!!!OMV: 012
!!!PDT:
!!!AGN: Sacred; Mass
!!!SMS-siglum: PL-CZ
!!!SMS-shelfmark: II-188
!!!SMS-shelfwork: 001-012 M
!!!SMS-variant:
!!!SMS-altvar:
!!!NIFC-rismid: 300000944
!!!URL-scan: http://repozytorium.nifc.pl/skany/pl-cz-nut--ii-188
!!!ONB-nifc: UWAGA: części Mszy: Kyrie, Gloria, Laudamus, Domine deus, Qui tollis, Quoniam,
!!!key: G
**kern	**dynam	**kern	**dynam	**kern	**dynam	**kern	**kern	**text	**kern	**text	**kern	**kern
*part8	*part8	*part7	*part7	*part6	*part6	*part5	*part4	*part4	*part3	*part3	*part2	*part1
*staff8	*	*staff7	*	*staff6	*	*staff5	*staff4	*staff4	*staff3	*staff3	*staff2	*staff1
*I"Fundamento.	*	*I"Violino Secundo.	*	*I"Violino Primo.	*	*I"Baſso.	*I"Canto 2do:	*	*I"Canto 1mo:	*	*I"Cornu 2do in G.	*I"Cornu 1mo.. in G.
*I'org	*	*I'vl 2	*	*I'vl 1	*	*I'B	*I'S 2	*	*I'S 1	*	*I'cor 2 in G	*I'cor 1 on G
*Iorgan	*	*Ivioln	*	*Ivioln	*	*Ibass	*Isoprn	*	*Isoprn	*	*Icor	*Icor
*ICklav	*	*ICstr	*	*ICstr	*	*ICvox	*ICvox	*	*ICvox	*	*ICbras	*ICbras
*clefF4	*	*clefG2	*	*clefG2	*	*clefF4	*clefC1	*	*clefC1	*	*clefG2	*clefG2
*	*	*	*	*	*	*	*	*	*	*	*ITrd3c5	*ITrd3c5
*k[f#]	*	*k[f#]	*	*k[f#]	*	*k[f#]	*k[f#]	*	*k[f#]	*	*k[f#]	*k[f#]
*g:	*	*g:	*	*g:	*	*g:	*g:	*	*g:	*	*g:	*g:
*M3/4	*	*M3/4	*	*M3/4	*	*M3/4	*M3/4	*	*M3/4	*	*M3/4	*M3/4
=1	=1	=1	=1	=1	=1	=1	=1	=1	=1	=1	=1	=1
*all\right	*	*all\right	*	*all\right	*	*	*all\right	*	*all\right	*	*	*
!LO:TX:t=P:problem:mixed beam	!	!	!	!	!	!	!	!	!	!	!	!
!LO:TX:b:t=Benedictus.	!	!LO:TX:a:t=Andante.	!	!LO:TX:b:t=Benedictus	!	!	!	!	!LO:TX:a:t=Andan&colon;	!	!	!
!LO:TX:a:t=Andante.	!	!LO:TX:b:t=Benedict&colon;	!	!LO:TX:a:t=andante	!	!LO:TX:a:t=Benedict&colon; Tace(t)\nOſanna Da Cap(o)	!LO:TX:a:t=Andante	!	!LO:TX:a:t=37.	!	!LO:TX:a:t=Oſanna Da Capo \nBenedictus Ta(cet)	!LO:TX:a:t=Benedictus Tacet || Oſanna Da Capo
8GG/L	.	2B/	.	2g/	.	2.ryy	0.r	.	0.r	.	2.ryy	2.ryy
8G\J	.	.	.	.	.	.	.	.	.	.	.	.
*tremolo	*	*	*	*	*	*	*	*	*	*	*	*
*2\right	*	*	*	*	*	*	*	*	*	*	*	*
!LO:TX:t=P:problem:mixed beam	!	!	!	!	!	!	!	!	!	!	!	!
8GG/L	.	.	.	.	.	.	.	.	.	.	.	.
8G\	.	.	.	.	.	.	.	.	.	.	.	.
8GG/	.	8c/L	.	8a/L	.	.	.	.	.	.	.	.
8G\J	.	8B/J	.	8g/J	.	.	.	.	.	.	.	.
=2	=2	=2	=2	=2	=2	=2	=2	=2	=2	=2	=2	=2
!LO:TX:t=P:problem:mixed beam	!	!	!	!	!	!	!	!	!	!	!	!
8GG/L	.	8e/L	.	8cc\L	.	2.ryy	.	.	.	.	2.ryy	2.ryy
8G\	.	8d/J	.	8b\J	.	.	.	.	.	.	.	.
8GG/	.	4d/	.	4b\	.	.	.	.	.	.	.	.
8G\J	.	.	.	.	.	.	.	.	.	.	.	.
*Xtremolo	*	*	*	*	*	*	*	*	*	*	*	*
8D/L	.	8r	.	8r	.	.	.	.	.	.	.	.
8D/J	.	8c/	.	8a/	.	.	.	.	.	.	.	.
=3	=3	=3	=3	=3	=3	=3	=3	=3	=3	=3	=3	=3
!LO:TX:t=P:problem:mixed beam	!	!	!	!	!	!	!	!	!	!	!	!
8GG/L	.	8c/L	.	8a/L	.	2.ryy	.	.	.	.	2.ryy	2.ryy
8G\J	.	8B/J	.	8g/J	.	.	.	.	.	.	.	.
8D/L	.	4B/	.	4g/	.	.	.	.	.	.	.	.
8C/	.	.	.	.	.	.	.	.	.	.	.	.
8BB/	.	4r	.	4r	.	.	.	.	.	.	.	.
8AA/J	.	.	.	.	.	.	.	.	.	.	.	.
=4	=4	=4	=4	=4	=4	=4	=4	=4	=4	=4	=4	=4
*tremolo	*	*	*	*2\right	*	*	*	*	*	*	*	*
!LO:TX:t=P:problem:mixed beam	!	!	!	!	!	!	!	!	!	!	!	!
8GG/L	.	2g/	.	2b\	.	2.ryy	.	.	.	.	2.ryy	2.ryy
8G\	.	.	.	.	.	.	.	.	.	.	.	.
8GG/	.	.	.	.	.	.	.	.	.	.	.	.
8G\J	.	.	.	.	.	.	.	.	.	.	.	.
*Xtremolo	*	*	*	*	*	*	*	*	*	*	*	*
!LO:TX:t=P:problem:mixed beam	!	!	!	!	!	!	!	!	!	!	!	!
8GG/L	.	8a/L	.	8cc\L	.	.	.	.	.	.	.	.
8G\J	.	8g/J	.	8b\J	.	.	.	.	.	.	.	.
=5	=5	=5	=5	=5	=5	=5	=5	=5	=5	=5	=5	=5
*tremolo	*	*	*	*	*	*	*	*	*	*	*	*
!LO:TX:t=P:problem:mixed beam	!	!	!	!	!	!	!	!	!	!	!	!
8GG/L	.	8cc\L	.	8ee\L	.	2.ryy	0.r	.	0.r	.	2.ryy	2.ryy
8G\	.	8b\J	.	8dd\J	.	.	.	.	.	.	.	.
8GG/	.	4b\	.	4dd\	.	.	.	.	.	.	.	.
8G\J	.	.	.	.	.	.	.	.	.	.	.	.
*Xtremolo	*	*	*	*	*	*	*	*	*	*	*	*
8D/L	.	8r	.	8r	.	.	.	.	.	.	.	.
8D/J	.	8a/	.	8cc\	.	.	.	.	.	.	.	.
!LO:LB:g=original	!	!	!	!	!	!	!	!	!	!	!	!
=6	=6	=6	=6	=6	=6	=6	=6	=6	=6	=6	=6	=6
!LO:TX:t=P:problem:mixed beam	!	!	!	!	!	!	!	!	!	!	!	!
8GG/L	.	8a/L	.	8cc\L	.	2.ryy	.	.	.	.	2.ryy	2.ryy
8G\	.	8g/J	.	8b\J	.	.	.	.	.	.	.	.
8D\	.	4g/	.	4b\	.	.	.	.	.	.	.	.
8BB\J	.	.	.	.	.	.	.	.	.	.	.	.
4GG/	.	4r	.	4r	.	.	.	.	.	.	.	.
!	!	!	!	!LO:LB:g=original	!	!	!	!	!	!	!	!
=7	=7	=7	=7	=7	=7	=7	=7	=7	=7	=7	=7	=7
*tremolo	*	*	*	*	*	*	*	*	*	*	*	*
8C/L	.	4cc\	.	4ee\	.	2.ryy	.	.	.	.	2.ryy	2.ryy
8C/	.	.	.	.	.	.	.	.	.	.	.	.
8C/	.	16cc\LL	.	16ee\LL	.	.	.	.	.	.	.	.
.	.	16ee\	.	16gg\	.	.	.	.	.	.	.	.
8C/	.	16dd\	.	16ff#\	.	.	.	.	.	.	.	.
.	.	16ee\JJ	.	16gg\JJ	.	.	.	.	.	.	.	.
8C/	.	16ffn\LL	.	16aa\LL	.	.	.	.	.	.	.	.
.	.	16ee\	.	16gg\	.	.	.	.	.	.	.	.
8C/J	.	16dd\	.	16ff#\	.	.	.	.	.	.	.	.
.	.	16cc\JJ	.	16ee\JJ	.	.	.	.	.	.	.	.
*Xtremolo	*	*	*	*	*	*	*	*	*	*	*	*
!	!	!LO:LB:g=original	!	!	!	!	!	!	!	!	!	!
=8	=8	=8	=8	=8	=8	=8	=8	=8	=8	=8	=8	=8
4G\	.	4b/	.	4dd\	.	2.ryy	.	.	.	.	2.ryy	2.ryy
4D\	.	4aT/	.	4ccT\	.	.	.	.	.	.	.	.
4GG/	.	4g/	.	4b\	.	.	.	.	.	.	.	.
=9	=9	=9	=9	=9	=9	=9	=9	=9	=9	=9	=9	=9
4D/	.	8f#/L	.	8a\L	.	2.ryy	0.r	.	0.r	.	2.ryy	2.ryy
.	.	8g/	.	8b\	.	.	.	.	.	.	.	.
4r	.	8a/	.	8cc\	.	.	.	.	.	.	.	.
.	.	8g/	.	8b\	.	.	.	.	.	.	.	.
4G\	.	8b/	.	8dd\	.	.	.	.	.	.	.	.
.	.	8g/J	.	8b\J	.	.	.	.	.	.	.	.
=10	=10	=10	=10	=10	=10	=10	=10	=10	=10	=10	=10	=10
8d\L	.	4g/	.	4bt/	.	2.ryy	.	.	.	.	2.ryy	2.ryy
8A\	.	.	.	.	.	.	.	.	.	.	.	.
8F#\	.	4f#/	.	4a/	.	.	.	.	.	.	.	.
8A\J	.	.	.	.	.	.	.	.	.	.	.	.
4D/	.	4r	.	4r	.	.	.	.	.	.	.	.
=11	=11	=11	=11	=11	=11	=11	=11	=11	=11	=11	=11	=11
8r	.	8r	.	4dd\	.	2.ryy	.	.	.	.	2.ryy	2.ryy
!LO:TX:t=P:problem:mixed beam	!	!	!	!	!	!	!	!	!	!	!	!
8D\L	.	8f#/L	.	.	.	.	.	.	.	.	.	.
8D\	.	8f#/	.	8dd\L	.	.	.	.	.	.	.	.
8D\	.	8f#/	.	8cc#X\	.	.	.	.	.	.	.	.
8A\	.	8e/	.	8ee\	.	.	.	.	.	.	.	.
8AA/J	.	8e/J	.	8g\J	.	.	.	.	.	.	.	.
=12	=12	=12	=12	=12	=12	=12	=12	=12	=12	=12	=12	=12
*tremolo	*	*	*	*	*	*	*	*	*	*	*	*
8D/L	.	8e/L	.	8gT/L	.	2.ryy	.	.	.	.	2.ryy	2.ryy
8D/	.	8d/	.	8f#/J	.	.	.	.	.	.	.	.
!	!	!	!	!LO:TX:t=P:problem:mixed beam	!	!	!	!	!	!	!	!
8D/	.	8d/	.	8d/L	.	.	.	.	.	.	.	.
8D/	.	8a/	.	8ff#\J	.	.	.	.	.	.	.	.
8D/	.	8a/	.	4ff#t\	.	.	.	.	.	.	.	.
8D/J	.	8a/J	.	.	.	.	.	.	.	.	.	.
*Xtremolo	*	*	*	*	*	*	*	*	*	*	*	*
=13	=13	=13	=13	=13	=13	=13	=13	=13	=13	=13	=13	=13
4G\	.	8g/	.	8ee\L	.	2.ryy	0.r	.	0.r	.	2.ryy	2.ryy
.	.	4b/	.	8gg\	.	.	.	.	.	.	.	.
4r	.	.	.	8bb\	.	.	.	.	.	.	.	.
.	.	4b/	.	8gg\	.	.	.	.	.	.	.	.
4G#X\	.	.	.	8ee\	.	.	.	.	.	.	.	.
.	.	8b/	.	8dd\J	.	.	.	.	.	.	.	.
=14	=14	=14	=14	=14	=14	=14	=14	=14	=14	=14	=14	=14
8A\L	.	16b/LL	.	16dd\LL	.	2.ryy	.	.	.	.	2.ryy	2.ryy
.	.	16a/	.	16cc#X\	.	.	.	.	.	.	.	.
8E\	.	16g#X/	.	16b\	.	.	.	.	.	.	.	.
.	.	16a/JJ	.	16a\JJ	.	.	.	.	.	.	.	.
8C#X\	.	8a/	.	4a/	.	.	.	.	.	.	.	.
8E\J	.	4a/	.	.	.	.	.	.	.	.	.	.
4AA/	.	.	.	4r	.	.	.	.	.	.	.	.
.	.	8a/	.	.	.	.	.	.	.	.	.	.
!	!	!	!	!LO:LB:g=original	!	!	!	!	!	!	!	!
=15	=15	=15	=15	=15	=15	=15	=15	=15	=15	=15	=15	=15
*tremolo	*	*	*	*	*	*	*	*	*	*	*	*
8D\L	.	8a/	.	4aa\	.	2.ryy	.	.	.	.	2.ryy	2.ryy
8D\	.	4a/	.	.	.	.	.	.	.	.	.	.
8D\	.	.	.	16aa\LL	.	.	.	.	.	.	.	.
.	.	.	.	16gg\	.	.	.	.	.	.	.	.
8D\J	.	4a/	.	16ff#\	.	.	.	.	.	.	.	.
.	.	.	.	16gg\JJ	.	.	.	.	.	.	.	.
*Xtremolo	*	*	*	*	*	*	*	*	*	*	*	*
!LO:TX:t=P:problem:mixed beam	!	!	!	!	!	!	!	!	!	!	!	!
8A\L	.	.	.	8ee\L	.	.	.	.	.	.	.	.
8AA/J	.	[8a/	.	8cc#X\J	.	.	.	.	.	.	.	.
!LO:LB:g=original	!	!	!	!	!	!	!	!	!	!	!	!
=16	=16	=16	=16	=16	=16	=16	=16	=16	=16	=16	=16	=16
*tremolo	*	*	*	*	*	*	*	*	*	*	*	*
8AA/L	.	8a/]	.	16dd\LL	.	2.ryy	.	.	.	.	2.ryy	2.ryy
.	.	.	.	16cc#X\	.	.	.	.	.	.	.	.
8AA/	.	4a/	.	16ee\	.	.	.	.	.	.	.	.
.	.	.	.	16cc#\JJ	.	.	.	.	.	.	.	.
8AA/	.	.	.	16a\LL	.	.	.	.	.	.	.	.
.	.	.	.	16cc#\	.	.	.	.	.	.	.	.
8AA/J	.	4a/	.	16ee\	.	.	.	.	.	.	.	.
.	.	.	.	16gg\JJ	.	.	.	.	.	.	.	.
*Xtremolo	*	*	*	*	*	*	*	*	*	*	*	*
8D/L	.	.	.	8ggT\L	.	.	.	.	.	.	.	.
8D/J	.	[8a/	.	8ff#\J	.	.	.	.	.	.	.	.
!	!	!LO:LB:g=original	!	!	!	!	!	!	!	!	!	!
=17	=17	=17	=17	=17	=17	=17	=17	=17	=17	=17	=17	=17
*tremolo	*	*	*	*	*	*	*	*	*	*	*	*
!LO:TX:t=P:problem:tremolo połączone belką z ósemkami	!	!LO:TX:t=P:problem:brak zakończenia ligatury	!	!	!	!	!	!	!	!	!	!
8D\L	.	8a/]	.	8ff#\L	.	2.ryy	0.r	.	0.r	.	2.ryy	2.ryy
8D\	.	4a/	.	8aa\J	.	.	.	.	.	.	.	.
8D\	.	.	.	16aa\LL	.	.	.	.	.	.	.	.
.	.	.	.	16gg\	.	.	.	.	.	.	.	.
8D\J	.	4a/	.	16ff#\	.	.	.	.	.	.	.	.
.	.	.	.	16gg\JJ	.	.	.	.	.	.	.	.
*Xtremolo	*	*	*	*	*	*	*	*	*	*	*	*
!LO:TX:t=P:problem:mixed beam	!	!	!	!	!	!	!	!	!	!	!	!
8A\L	.	.	.	8ee\L	.	.	.	.	.	.	.	.
8AA/J	.	[8a/	.	8cc#X\J	.	.	.	.	.	.	.	.
=18	=18	=18	=18	=18	=18	=18	=18	=18	=18	=18	=18	=18
*tremolo	*	*	*	*	*	*	*	*	*	*	*	*
8AA/L	.	8a/]	.	16dd\LL	.	2.ryy	.	.	.	.	2.ryy	2.ryy
.	.	.	.	16cc#X\	.	.	.	.	.	.	.	.
8AA/	.	4a/	.	16ee\	.	.	.	.	.	.	.	.
.	.	.	.	16cc#\JJ	.	.	.	.	.	.	.	.
8AA/	.	.	.	16a\LL	.	.	.	.	.	.	.	.
.	.	.	.	16cc#X\	.	.	.	.	.	.	.	.
8AA/J	.	4a/	.	16ee\	.	.	.	.	.	.	.	.
.	.	.	.	16gg\JJ	.	.	.	.	.	.	.	.
*Xtremolo	*	*	*	*	*	*	*	*	*	*	*	*
8D/L	.	.	.	8ggT\L	.	.	.	.	.	.	.	.
8D/J	.	8a/yy	.	8ff#\J	.	.	.	.	.	.	.	.
=19	=19	=19	=19	=19	=19	=19	=19	=19	=19	=19	=19	=19
*	*	*^	*	*	*	*	*	*	*	*	*	*
*tremolo	*	*tremolo	*tremolo	*	*	*	*	*	*	*	*	*	*
*	*	*	*2\right	*	*	*	*	*	*	*	*	*	*
8G\L	.	8b/L	8g\L	.	4bb\	.	2.ryy	.	.	.	.	2.ryy	2.ryy
8G\	.	8b/	8g\	.	.	.	.	.	.	.	.	.	.
8G\	.	8b/	8g\	.	16bb\LL	.	.	.	.	.	.	.	.
.	.	.	.	.	16gg\	.	.	.	.	.	.	.	.
8G\	.	8b/	8g\	.	16ff#\	.	.	.	.	.	.	.	.
.	.	.	.	.	16gg\JJ	.	.	.	.	.	.	.	.
8G\	.	8b/	8g\	.	16dd\LL	.	.	.	.	.	.	.	.
.	.	.	.	.	16gg\	.	.	.	.	.	.	.	.
8G\J	.	8b/J	8g\J	.	16ff#\	.	.	.	.	.	.	.	.
.	.	.	.	.	16gg\JJ	.	.	.	.	.	.	.	.
*Xtremolo	*	*	*	*	*	*	*	*	*	*	*	*	*
=20	=20	=20	=20	=20	=20	=20	=20	=20	=20	=20	=20	=20	=20
*	*	*	*tremolo	*	*	*	*	*	*	*	*	*	*
8AA/L	.	8a/L	8f#\L	.	4aa\	.	2.ryy	.	.	.	.	2.ryy	2.ryy
8AA/J	.	8a/	8f#\	.	.	.	.	.	.	.	.	.	.
*tremolo	*	*	*	*	*	*	*	*	*	*	*	*	*
8D/L	.	8a/	8f#\	.	16aa\LL	.	.	.	.	.	.	.	.
.	.	.	.	.	16ff#\	.	.	.	.	.	.	.	.
8D/	.	8a/	8f#\	.	16ee\	.	.	.	.	.	.	.	.
.	.	.	.	.	16ff#\JJ	.	.	.	.	.	.	.	.
8D/	.	8a/	8f#\	.	16dd\LL	.	.	.	.	.	.	.	.
.	.	.	.	.	16ff#\	.	.	.	.	.	.	.	.
8D/J	.	8a/J	8f#\J	.	16ee\	.	.	.	.	.	.	.	.
.	.	.	.	.	16ff#\JJ	.	.	.	.	.	.	.	.
*Xtremolo	*	*Xtremolo	*Xtremolo	*	*	*	*	*	*	*	*	*	*
*	*	*v	*v	*	*	*	*	*	*	*	*	*	*
!	!	!	!	!LO:LB:g=original	!	!	!	!	!	!	!	!
=21	=21	=21	=21	=21	=21	=21	=21	=21	=21	=21	=21	=21
!LO:TX:t=P:problem:mixed beam	!	!	!	!	!	!	!	!	!	!	!	!
8G\L	.	16a/LL	.	16ff#\LL	.	2.ryy	0.r	.	0.r	.	2.ryy	2.ryy
.	.	16g/	.	16ee\	.	.	.	.	.	.	.	.
8G\	.	16b/	.	16gg\	.	.	.	.	.	.	.	.
.	.	16g/JJ	.	16ee\JJ	.	.	.	.	.	.	.	.
8A\	.	4f#/	.	4dd\	.	.	.	.	.	.	.	.
8A\	.	.	.	.	.	.	.	.	.	.	.	.
8AA/	.	4eT/	.	4cc#Xt\	.	.	.	.	.	.	.	.
8AA/J	.	.	.	.	.	.	.	.	.	.	.	.
=22	=22	=22	=22	=22	=22	=22	=22	=22	=22	=22	=22	=22
*	*	*^	*	*	*	*	*	*	*	*	*	*
*	*	*tremolo	*tremolo	*	*	*	*	*	*	*	*	*	*
8D\L	.	8b/L	8g\L	.	4bb\	.	2.ryy	.	.	.	.	2.ryy	2.ryy
8G\J	.	8b/	8g\	.	.	.	.	.	.	.	.	.	.
*tremolo	*	*	*	*	*	*	*	*	*	*	*	*	*
8A\L	.	8b/	8g\	.	16bb\LL	.	.	.	.	.	.	.	.
.	.	.	.	.	16gg\	.	.	.	.	.	.	.	.
8A\	.	8b/	8g\	.	16ff#\	.	.	.	.	.	.	.	.
.	.	.	.	.	16gg\JJ	.	.	.	.	.	.	.	.
8A\	.	8b/	8g\	.	16dd\LL	.	.	.	.	.	.	.	.
.	.	.	.	.	16gg\	.	.	.	.	.	.	.	.
8A\J	.	8b/J	8g\J	.	16ff#\	.	.	.	.	.	.	.	.
.	.	.	.	.	16gg\JJ	.	.	.	.	.	.	.	.
=23	=23	=23	=23	=23	=23	=23	=23	=23	=23	=23	=23	=23	=23
*	*	*tremolo	*tremolo	*	*	*	*	*	*	*	*	*	*
8D/L	.	8a/L	8f#\L	.	4aa\	.	2.ryy	.	.	.	.	2.ryy	2.ryy
8D/	.	8a/	8f#\	.	.	.	.	.	.	.	.	.	.
8D/	.	8a/	8f#\	.	16aa\LL	.	.	.	.	.	.	.	.
.	.	.	.	.	16ff#\	.	.	.	.	.	.	.	.
8D/	.	8a/	8f#\	.	16ee\	.	.	.	.	.	.	.	.
.	.	.	.	.	16ff#\JJ	.	.	.	.	.	.	.	.
8D/	.	8a/	8f#\	.	16dd\LL	.	.	.	.	.	.	.	.
.	.	.	.	.	16ff#\	.	.	.	.	.	.	.	.
8D/J	.	8a/J	8f#\J	.	16ee\	.	.	.	.	.	.	.	.
.	.	.	.	.	16ff#\JJ	.	.	.	.	.	.	.	.
*Xtremolo	*	*Xtremolo	*Xtremolo	*	*	*	*	*	*	*	*	*	*
*	*	*v	*v	*	*	*	*	*	*	*	*	*	*
=24	=24	=24	=24	=24	=24	=24	=24	=24	=24	=24	=24	=24
!LO:TX:t=P:problem:mixed beam	!	!	!	!	!	!	!	!	!	!	!	!
8G\L	.	16a/LL	.	16ff#\LL	.	2.ryy	.	.	.	.	2.ryy	2.ryy
.	.	16g/	.	16ee\	.	.	.	.	.	.	.	.
8G\	.	16b/	.	16gg\	.	.	.	.	.	.	.	.
.	.	16g/JJ	.	16ee\JJ	.	.	.	.	.	.	.	.
8A\	.	4f#/	.	4dd\	.	.	.	.	.	.	.	.
8A\	.	.	.	.	.	.	.	.	.	.	.	.
8AA/	.	4eT/	.	4cc#Xt\	.	.	.	.	.	.	.	.
8AA/J	.	.	.	.	.	.	.	.	.	.	.	.
=25	=25	=25	=25	=25	=25	=25	=25	=25	=25	=25	=25	=25
.	.	.	.	8qqcc/	.	.	.	.	.	.	.	.
4D/	.	4f#/	.	4dd\	.	2.ryy	0.r	.	0.r	.	2.ryy	2.ryy
8D/L	.	4r	.	4r	.	.	.	.	.	.	.	.
8Cn/	.	.	.	.	.	.	.	.	.	.	.	.
8BB/	.	4r	.	4d/	.	.	.	.	.	.	.	.
8AA/J	.	.	.	.	.	.	.	.	.	.	.	.
!LO:LB:g=original	!	!	!	!	!	!	!	!	!	!	!	!
=26	=26	=26	=26	=26	=26	=26	=26	=26	=26	=26	=26	=26
!LO:TX:t=P:problem:mixed beam	!	!	!	!	!	!	!	!	!	!	!	!
8GG/L	.	4d 4B/	.	8g/	.	2.ryy	.	.	.	.	2.ryy	2.ryy
8G\J	.	.	.	4g/	.	.	.	.	.	.	.	.
4GG/	.	4d 4B/	.	.	.	.	.	.	.	.	.	.
.	.	.	.	16f#/LL	.	.	.	.	.	.	.	.
.	.	.	.	16g/JJ	.	.	.	.	.	.	.	.
4r	.	4r	.	16d/LL	.	.	.	.	.	.	.	.
.	.	.	.	16c/	.	.	.	.	.	.	.	.
.	.	.	.	16B/	.	.	.	.	.	.	.	.
.	.	.	.	16A/JJ	.	.	.	.	.	.	.	.
!	!	!LO:LB:g=original	!	!LO:LB:g=original	!	!	!	!	!	!	!	!
=27	=27	=27	=27	=27	=27	=27	=27	=27	=27	=27	=27	=27
!LO:TX:t=P:problem:mixed beam	!	!	!	!	!	!	!	!	!	!	!	!
8GG/L	.	4d 4B/	.	8G/	.	2.ryy	.	.	.	.	2.ryy	2.ryy
8G\J	.	.	.	4b/	.	.	.	.	.	.	.	.
4GG/	.	4d 4B/	.	.	.	.	.	.	.	.	.	.
.	.	.	.	16a/LL	.	.	.	.	.	.	.	.
.	.	.	.	16b/JJ	.	.	.	.	.	.	.	.
4r	.	4r	.	16g/LL	.	.	.	.	.	.	.	.
.	.	.	.	16f#/	.	.	.	.	.	.	.	.
.	.	.	.	16e/	.	.	.	.	.	.	.	.
.	.	.	.	16d/JJ	.	.	.	.	.	.	.	.
=28	=28	=28	=28	=28	=28	=28	=28	=28	=28	=28	=28	=28
4G\	.	8g/L	.	8b\L	.	2.ryy	.	.	.	.	2.ryy	2.ryy
.	.	8b/	.	8dd\	.	.	.	.	.	.	.	.
4r	.	8ee/	.	8gg\	.	.	.	.	.	.	.	.
.	.	8dd/	.	8ff#\	.	.	.	.	.	.	.	.
4G\	.	8cc/	.	8ee\	.	.	.	.	.	.	.	.
.	.	8b/J	.	8dd\J	.	.	.	.	.	.	.	.
=29	=29	=29	=29	=29	=29	=29	=29	=29	=29	=29	=29	=29
!LO:TX:t=P:problem:mixed beam	!	!	!	!	!	!	!	!	!	!	!	!
8d\L	.	8b/L	.	8dd\L	.	2.ryy	0.r	.	0.r	.	2.ryy	2.ryy
8d\	.	8a/	.	8cc\	.	.	.	.	.	.	.	.
8D/	.	8a/	.	8cc\	.	.	.	.	.	.	.	.
8D/J	.	8g/J	.	8b\J	.	.	.	.	.	.	.	.
!LO:TX:t=P:problem:mixed beam	!	!	!	!	!	!	!	!	!	!	!	!
8G\L	.	4g/	.	4b\	.	.	.	.	.	.	.	.
8GG/J	.	.	.	.	.	.	.	.	.	.	.	.
=30	=30	=30	=30	=30	=30	=30	=30	=30	=30	=30	=30	=30
*tremolo	*	*	*	*	*	*	*	*	*	*	*	*
!LO:TX:a:t=Solo.:problem:przekreślone	!	!	!	!	!	!	!	!	!	!	!	!
8C/L	.	8cc\	.	8ee\	.	2.ryy	.	.	.	.	2.ryy	2.ryy
8C/	.	4cc\	.	4ee\	.	.	.	.	.	.	.	.
8C/	.	.	.	.	.	.	.	.	.	.	.	.
8C/	.	8dd\L	.	8ff#\L	.	.	.	.	.	.	.	.
8C/	.	8ee\	.	8gg\	.	.	.	.	.	.	.	.
8C/J	.	8cc\J	.	8ee\J	.	.	.	.	.	.	.	.
=31	=31	=31	=31	=31	=31	=31	=31	=31	=31	=31	=31	=31
8G\L	.	4.b/	.	4.dd\	.	2.ryy	.	.	.	.	2.ryy	2.ryy
8G\	.	.	.	.	.	.	.	.	.	.	.	.
8G\	.	.	.	.	.	.	.	.	.	.	.	.
8G\	.	8a/L	.	8ccT\L	.	.	.	.	.	.	.	.
8G\	.	8g/	.	8b\	.	.	.	.	.	.	.	.
8G\J	.	8b/J	.	8gg\J	.	.	.	.	.	.	.	.
*Xtremolo	*	*	*	*	*	*	*	*	*	*	*	*
=32	=32	=32	=32	=32	=32	=32	=32	=32	=32	=32	=32	=32
!LO:TX:t=P:problem:mixed beam	!	!	!	!	!	!	!	!	!	!	!	!
8c\L	.	16dd\LL	.	16ffn\LL	.	2.ryy	.	.	.	.	2.ryy	2.ryy
.	.	16cc\	.	16ee\	.	.	.	.	.	.	.	.
8c\	.	16b\	.	16dd\	.	.	.	.	.	.	.	.
.	.	16a\JJ	.	16cc\JJ	.	.	.	.	.	.	.	.
8d\	.	4g/	.	4b/	.	.	.	.	.	.	.	.
8d\	.	.	.	.	.	.	.	.	.	.	.	.
8D/	.	4f#t/	.	4aT/	.	.	.	.	.	.	.	.
8D/J	.	.	.	.	.	.	.	.	.	.	.	.
=33	=33	=33	=33	=33	=33	=33	=33	=33	=33	=33	=33	=33
8G\L	.	8g/	.	8g/	.	2.ryy	0.r	.	0.r	.	2.ryy	2.ryy
8c\J	.	4cc\	.	4ee\	.	.	.	.	.	.	.	.
*tremolo	*	*	*	*	*	*	*	*	*	*	*	*
8c\L	.	.	.	.	.	.	.	.	.	.	.	.
8c\	.	8dd\L	.	8ff#\L	.	.	.	.	.	.	.	.
8c\	.	8ee\	.	8gg\	.	.	.	.	.	.	.	.
!	!	!	!	!LO:SIC:v:t=custos b	!	!	!	!	!	!	!	!
8c\J	.	8cc\J	.	8ee\J	.	.	.	.	.	.	.	.
!	!	!LO:LB:g=original	!	!LO:LB:g=original	!	!	!	!	!	!	!	!
=34	=34	=34	=34	=34	=34	=34	=34	=34	=34	=34	=34	=34
8G\L	.	4.b/	.	4.dd\	.	2.ryy	.	.	.	.	2.ryy	2.ryy
8G\	.	.	.	.	.	.	.	.	.	.	.	.
8G\	.	.	.	.	.	.	.	.	.	.	.	.
8G\	.	8a/L	.	8cc\L	.	.	.	.	.	.	.	.
8G\	.	8g/	.	8b\	.	.	.	.	.	.	.	.
8G\J	.	8b/J	.	8gg\J	.	.	.	.	.	.	.	.
*Xtremolo	*	*	*	*	*	*	*	*	*	*	*	*
=35	=35	=35	=35	=35	=35	=35	=35	=35	=35	=35	=35	=35
!LO:TX:t=P:problem:mixed beam	!	!	!	!	!	!	!	!	!	!	!	!
8c\L	.	16dd\LL	.	16ffn\LL	.	2.ryy	.	.	.	.	2.ryy	2.ryy
.	.	16cc\	.	16ee\	.	.	.	.	.	.	.	.
8c\	.	16b\	.	16dd\	.	.	.	.	.	.	.	.
.	.	16a\JJ	.	16cc\JJ	.	.	.	.	.	.	.	.
8d\	.	4g/	.	4b/	.	.	.	.	.	.	.	.
8d\	.	.	.	.	.	.	.	.	.	.	.	.
8D/	.	4f#t/	.	4aT/	.	.	.	.	.	.	.	.
8D/J	.	.	.	.	.	.	.	.	.	.	.	.
!LO:LB:g=original	!	!	!	!	!	!	!	!	!	!	!	!
=36	=36	=36	=36	=36	=36	=36	=36	=36	=36	=36	=36	=36
4G\	.	4g/	.	4g/	.	2.ryy	.	.	.	.	2.ryy	2.ryy
4G\	.	4b 4d/	.	4gg 4b 4d/	.	.	.	.	.	.	.	.
4G\	.	4b 4d/	.	4gg 4b 4d/	.	.	.	.	.	.	.	.
=37	=37	=37	=37	=37	=37	=37	=37	=37	=37	=37	=37	=37
2G;\	.	2b 2d/	.	2gg 2b 2d/	.	2.ryy	0.r	.	2.r	.	2.ryy	2.ryy
4r	.	4r	.	4d/	.	.	.	.	.	.	.	.
=38	=38	=38	=38	=38	=38	=38	=38	=38	=38	=38	=38	=38
*	*	*	*	*	*	*	*	*	*2\right	*	*	*
!LO:TX:t=P:problem:mixed beam	!	!LO:TX:a:t=Solo	!LO:DY:b:rj:t=p&colon;	!LO:TX:a:t=Solo	!LO:DY:b:t=pia	!	!	!	!	!	!	!
8GG/L	.	2B/	p	2g/	p	2.ryy	.	.	2g\	Be-	2.ryy	2.ryy
!LO:TX:a:t=Solo	!	!	!	!	!	!	!	!	!	!	!	!
8G\J	.	.	.	.	.	.	.	.	.	.	.	.
*tremolo	*	*	*	*	*	*	*	*	*	*	*	*
!LO:TX:t=P:problem:mixed beam	!	!	!	!	!	!	!	!	!	!	!	!
8GG/L	.	.	.	.	.	.	.	.	.	.	.	.
8G\	.	.	.	.	.	.	.	.	.	.	.	.
8GG/	.	8c/L	.	8a/L	.	.	.	.	8a\L	-ne-	.	.
8G\J	.	8B/J	.	8g/J	.	.	.	.	8g\J	.	.	.
=39	=39	=39	=39	=39	=39	=39	=39	=39	=39	=39	=39	=39
!LO:TX:t=P:problem:mixed beam	!	!	!	!	!	!	!	!	!	!	!	!
8GG/L	.	8e/L	.	8cc\L	.	2.ryy	.	.	8cc\L	-dic-	2.ryy	2.ryy
8G\	.	8d/J	.	8b\J	.	.	.	.	8b\J	.	.	.
8GG/	.	4d/	.	4b\	.	.	.	.	4b\	-tus	.	.
8G\J	.	.	.	.	.	.	.	.	.	.	.	.
*Xtremolo	*	*	*	*	*	*	*	*	*	*	*	*
8D/L	.	8r	.	8r	.	.	.	.	8r	.	.	.
8D/J	.	8c/	.	8a/	.	.	.	.	8a\	qui	.	.
=40	=40	=40	=40	=40	=40	=40	=40	=40	=40	=40	=40	=40
!LO:TX:t=P:problem:mixed beam	!	!	!	!	!	!	!	!	!	!	!	!
8GG/L	.	8c/L	.	8a/L	.	2.ryy	.	.	8a\L	ve-	2.ryy	2.ryy
8G\J	.	8B/J	.	8g/J	.	.	.	.	8g\J	.	.	.
8D\L	.	4B/	.	4g/	.	.	.	.	4g\	-nit	.	.
8C\	.	.	.	.	.	.	.	.	.	.	.	.
8BB/	.	4r	.	4r	.	.	.	.	4r	.	.	.
8AA/J	.	.	.	.	.	.	.	.	.	.	.	.
=41	=41	=41	=41	=41	=41	=41	=41	=41	=41	=41	=41	=41
*	*	*	*	*	*	*	*2\right	*	*	*	*	*
!LO:TX:t=P:problem:mixed beam	!	!	!	!	!	!	!	!	!	!	!	!
8GG/L	.	2g/	.	2b\	.	2.ryy	2g\	Be-	2b\	Be-	2.ryy	2.ryy
8G\J	.	.	.	.	.	.	.	.	.	.	.	.
*tremolo	*	*	*	*	*	*	*	*	*	*	*	*
!LO:TX:t=P:problem:mixed beam	!	!	!	!	!	!	!	!	!	!	!	!
8GG/L	.	.	.	.	.	.	.	.	.	.	.	.
8G\	.	.	.	.	.	.	.	.	.	.	.	.
8GG/	.	8a/L	.	8cc\L	.	.	8a\L	-ne-	8cc\L	-ne-	.	.
!	!	!LO:SIC:v:t=custos cc	!	!	!	!	!	!	!	!	!	!
8G\J	.	8g/J	.	8b\J	.	.	8g\J	.	8b\J	.	.	.
!	!	!LO:LB:g=original	!	!LO:LB:g=original	!	!	!	!	!	!	!	!
=42	=42	=42	=42	=42	=42	=42	=42	=42	=42	=42	=42	=42
!LO:TX:t=P:problem:mixed beam	!	!	!	!	!	!	!	!	!	!	!	!
8GG/L	.	8cc\L	.	8ee\L	.	2.ryy	8cc\L	-dic-	8ee\L	-dic-	2.ryy	2.ryy
8G\	.	8b\J	.	8dd\J	.	.	8b\J	.	8dd\J	.	.	.
8GG/	.	4b/	.	4dd\	.	.	4b\	-tus	4dd\	-tus	.	.
8G\J	.	.	.	.	.	.	.	.	.	.	.	.
*Xtremolo	*	*	*	*	*	*	*	*	*	*	*	*
8D/L	.	8r	.	8r	.	.	8r	.	8r	.	.	.
8D/J	.	8a/	.	8cc\	.	.	8a\	qui	8cc\	qui	.	.
!	!	!	!	!	!	!	!	!	!LO:LB:g=original	!	!	!
=43	=43	=43	=43	=43	=43	=43	=43	=43	=43	=43	=43	=43
!LO:TX:t=P:problem:mixed beam	!	!	!	!	!	!	!	!	!	!	!	!
8GG/L	.	8a/L	.	8cc\L	.	2.ryy	8a\L	ve-	8cc\L	ve-	2.ryy	2.ryy
8G\	.	8g/J	.	8b\J	.	.	8g\J	.	8b\J	.	.	.
8D\	.	4g/	.	4b\	.	.	4g\	-nit	4b\	-nit	.	.
8BB\J	.	.	.	.	.	.	.	.	.	.	.	.
4GG/	.	4r	.	4r	.	.	8r	.	8r	.	.	.
.	.	.	.	.	.	.	8b\	in	8dd\	in	.	.
=44	=44	=44	=44	=44	=44	=44	=44	=44	=44	=44	=44	=44
*tremolo	*	*	*	*	*	*	*	*	*	*	*	*
8C/L	.	4cc\	.	4ee\	.	2.ryy	4cc\	no-	4ee\	no-	2.ryy	2.ryy
8C/	.	.	.	.	.	.	.	.	.	.	.	.
8C/	.	16cc\LL	.	16ee\LL	.	.	16cc\LL	.	16ee\LL	.	.	.
.	.	16ee\	.	16gg\	.	.	16ee\	.	16gg\	.	.	.
8C/	.	16dd\	.	16ff#\	.	.	16dd\	.	16ff#\	.	.	.
.	.	16ee\JJ	.	16gg\JJ	.	.	16ee\JJ	.	16gg\JJ	.	.	.
8C/	.	16ffn\LL	.	16aa\LL	.	.	16ffn\LL	.	16aa\LL	.	.	.
.	.	16ee\	.	16gg\	.	.	16ee\	.	16gg\	.	.	.
8C/J	.	16dd\	.	16ff#\	.	.	16dd\	.	16ff#\	.	.	.
.	.	16cc\JJ	.	16ee\JJ	.	.	16cc\JJ	.	16ee\JJ	.	.	.
!LO:PB:g=original	!	!	!	!	!	!	!	!	!	!	!	!
=45	=45	=45	=45	=45	=45	=45	=45	=45	=45	=45	=45	=45
8GG/L	.	8.b/L	.	8.dd\L	.	2.ryy	8.b\	.	8.dd\L	mi-	2.ryy	2.ryy
8GG/	.	.	.	.	.	.	.	.	.	.	.	.
.	.	16a/Jk	.	16cc\Jk	.	.	16a\	-mi-	16cc\Jk	.	.	.
8GG/	.	4g/	.	4b\	.	.	4g\	-ne	4b\	-ne	.	.
8GG/	.	.	.	.	.	.	.	.	.	.	.	.
8GG/	.	8r	.	8r	.	.	8r	.	8r	.	.	.
8GG/J	.	8b\	.	8dd\	.	.	8b\	in	8dd\	in	.	.
!	!	!	!	!	!	!	!LO:LB:g=original	!	!	!	!	!
=46	=46	=46	=46	=46	=46	=46	=46	=46	=46	=46	=46	=46
8C/L	.	4cc\	.	4ee\	.	2.ryy	4cc\	no-	4ee\	no-	2.ryy	2.ryy
8C/	.	.	.	.	.	.	.	.	.	.	.	.
8C/	.	16cc\LL	.	16ee\LL	.	.	16cc\LL	.	16ee\LL	.	.	.
.	.	16ee\	.	16gg\	.	.	16ee\	.	16gg\	.	.	.
8C/	.	16dd\	.	16ff#\	.	.	16dd\	.	16ff#\	.	.	.
.	.	16ee\JJ	.	16gg\JJ	.	.	16ee\JJ	.	16gg\JJ	.	.	.
8C/	.	16ffn\LL	.	16aa\LL	.	.	16ffn\LL	.	16aa\LL	.	.	.
.	.	16ee\	.	16gg\	.	.	16ee\	.	16gg\	.	.	.
8C/J	.	16dd\	.	16ff#\	.	.	16dd\	.	16ff#\	.	.	.
.	.	16cc\JJ	.	16ee\JJ	.	.	16cc\JJ	.	16ee\JJ	.	.	.
=47	=47	=47	=47	=47	=47	=47	=47	=47	=47	=47	=47	=47
8GG/L	.	8.b/L	.	8.dd\L	.	2.ryy	8.b\	.	8.dd\	.	2.ryy	2.ryy
8GG/	.	.	.	.	.	.	.	.	.	.	.	.
.	.	16a/Jk	.	16cc\Jk	.	.	16a\	-mi-	16cc\	-mi-	.	.
8GG/	.	4g/	.	4b\	.	.	4g/	-ne	4b\	-ne	.	.
8GG/	.	.	.	.	.	.	.	.	.	.	.	.
8GG/	.	8r	.	8r	.	.	8r	.	8r	.	.	.
8GG/J	.	8b\	.	8dd\	.	.	8b\	in	8dd\	in	.	.
*Xtremolo	*	*	*	*	*	*	*	*	*	*	*	*
!	!	!LO:LB:g=original	!	!LO:LB:g=original	!	!	!	!	!LO:LB:g=original	!	!	!
=48	=48	=48	=48	=48	=48	=48	=48	=48	=48	=48	=48	=48
4G\	.	8b/L	.	8gg\L	.	2.ryy	4b\	no-	8gg\L	no-	2.ryy	2.ryy
.	.	8b/J	.	8dd\J	.	.	.	.	8dd\J	.	.	.
4D\	.	4a/	.	4cc\	.	.	4a\	-mi-	4cc\	-mi-	.	.
4G\	.	4g/	.	4b\	.	.	4g\	-ne	4b\	-ne	.	.
=49	=49	=49	=49	=49	=49	=49	=49	=49	=49	=49	=49	=49
8d\L	.	4gT/	.	4bt/	.	2.ryy	8.g/	Do-	8.b\	Do-	2.ryy	2.ryy
8A\	.	.	.	.	.	.	.	.	.	.	.	.
.	.	.	.	.	.	.	16g/	-mi-	16b\	-mi-	.	.
8F#\	.	4f#/	.	4a/	.	.	4f#/	-ni	4a\	-ni	.	.
8A\J	.	.	.	.	.	.	.	.	.	.	.	.
4D/	.	4r	.	8r	.	.	4r	.	4r	.	.	.
.	.	.	.	8a/	.	.	.	.	.	.	.	.
=50	=50	=50	=50	=50	=50	=50	=50	=50	=50	=50	=50	=50
8r	.	8r	.	4dd\	.	2.ryy	0.r	.	4dd\	Be-	2.ryy	2.ryy
!LO:TX:t=P:problem:mixed beam	!	!	!	!	!	!	!	!	!	!	!	!
8D\L	.	8f#/L	.	.	.	.	.	.	.	.	.	.
8D\	.	8f#/	.	8dd\L	.	.	.	.	8dd\L	.	.	.
8D\	.	8f#/	.	8cc#X\	.	.	.	.	8cc#X\	.	.	.
8A\	.	8e/	.	8ee\	.	.	.	.	8ee\J	.	.	.
8AA/J	.	8e/J	.	8g\J	.	.	.	.	8g/	-ne-	.	.
=51	=51	=51	=51	=51	=51	=51	=51	=51	=51	=51	=51	=51
8AA/L	.	8e/L	.	4gT/	.	2.ryy	.	.	4g/	-dic-	2.ryy	2.ryy
8AA/J	.	8e/	.	.	.	.	.	.	.	.	.	.
*tremolo	*	*	*	*	*	*	*	*	*	*	*	*
8D/L	.	8d/	.	4f#/	.	.	.	.	4f#/	-tus	.	.
8D/	.	8a/	.	.	.	.	.	.	.	.	.	.
8D/	.	8a/	.	8r	.	.	.	.	8r	.	.	.
8D/J	.	8a/J	.	8ff#\	.	.	.	.	8ff#\	qui	.	.
*Xtremolo	*	*	*	*	*	*	*	*	*	*	*	*
=52	=52	=52	=52	=52	=52	=52	=52	=52	=52	=52	=52	=52
4D\	.	8g/	.	8ff#\L	.	2.ryy	.	.	8ff#\L	ve-	2.ryy	2.ryy
.	.	4b/	.	8ee\	.	.	.	.	8ee\	.	.	.
4r	.	.	.	8gg\	.	.	.	.	8gg\	.	.	.
.	.	4b/	.	8ff#\	.	.	.	.	8ff#\J	.	.	.
4G\	.	.	.	8ee\	.	.	.	.	8ee\	.	.	.
.	.	8b/	.	8dd\J	.	.	.	.	8dd\	.	.	.
=53	=53	=53	=53	=53	=53	=53	=53	=53	=53	=53	=53	=53
8A\L	.	16b/LL	.	16dd\LL	.	2.ryy	.	.	16dd\LL	.	2.ryy	2.ryy
.	.	16a/	.	16cc#X\	.	.	.	.	16cc#X\	.	.	.
8E\	.	16g#X/	.	16b\	.	.	.	.	16b\	.	.	.
.	.	16a/JJ	.	16a\JJ	.	.	.	.	16a\JJ	.	.	.
8C#X\	.	4a/	.	4a/	.	.	.	.	4a\	-nit	.	.
8E\J	.	.	.	.	.	.	.	.	.	.	.	.
!	!	!LO:SIC:v:t=custos cc	!	!	!	!	!	!	!	!	!	!
!	!	!LO:TX:b:t=V&colon;S&colon;	!	!	!	!	!	!	!	!	!	!
4AA/	.	4r	.	4r	.	.	.	.	4r	.	.	.
!	!	!LO:PB:g=original	!	!	!	!	!	!	!LO:LB:g=original	!	!	!
=54	=54	=54	=54	=54	=54	=54	=54	=54	=54	=54	=54	=54
8D\	.	8f#/	.	8a/	.	2.ryy	8r	.	8r	.	2.ryy	2.ryy
8r	.	8r	.	8r	.	.	8f#/	Be-	8a\	Be-	.	.
8G\	.	8g/	.	8b/	.	.	8r	.	8r	.	.	.
8r	.	8r	.	8r	.	.	8g/	.	8b\	.	.	.
8A\	.	8e/	.	8cc#X\	.	.	8r	.	8r	.	.	.
8r	.	8r	.	8r	.	.	8e/	-ne-	8cc#X\	ne-	.	.
!LO:LB:g=original	!	!	!	!LO:LB:g=original	!	!	!	!	!	!	!	!
=55	=55	=55	=55	=55	=55	=55	=55	=55	=55	=55	=55	=55
*	*	*tremolo	*	*	*	*	*	*	*	*	*	*
4D/	.	8f#/L	.	8dd\L	.	2.ryy	4f#/	-dic-	8dd\L	-dic-	2.ryy	2.ryy
.	.	8f#/	.	8a\J	.	.	.	.	8a\J	.	.	.
*	*	*	*	*tremolo	*	*	*	*	*	*	*	*
8r	.	8f#/	.	8a/L	.	.	4f#/	-tus	4a\	-tus	.	.
8D\L	.	8f#/	.	8a/	.	.	.	.	.	.	.	.
8F#\	.	8f#/	.	8a/	.	.	4r	.	4r	.	.	.
8D\J	.	8f#/J	.	8a/J	.	.	.	.	.	.	.	.
*	*	*Xtremolo	*	*Xtremolo	*	*	*	*	*	*	*	*
!	!	!	!	!	!	!	!LO:LB:g=original	!	!	!	!	!
=56	=56	=56	=56	=56	=56	=56	=56	=56	=56	=56	=56	=56
8D\	.	8f#/	.	8a/	.	2.ryy	8r	.	8r	.	2.ryy	2.ryy
8r	.	8r	.	8r	.	.	8f#/	qui	8a\	qui	.	.
8G\	.	8g/	.	8b\	.	.	8r	.	8r	.	.	.
8r	.	8r	.	8r	.	.	8g/	ve-	8b\	ve-	.	.
8A\	.	8e/	.	8cc#X\	.	.	8r	.	8r	.	.	.
8r	.	8r	.	8r	.	.	8e/	.	8cc#X\	.	.	.
=57	=57	=57	=57	=57	=57	=57	=57	=57	=57	=57	=57	=57
*	*	*tremolo	*	*	*	*	*	*	*	*	*	*
4D\	.	8f#/L	.	8dd\L	.	2.ryy	4f#/	.	8dd\L	.	2.ryy	2.ryy
.	.	8f#/	.	8a\J	.	.	.	.	8a\J	.	.	.
*	*	*	*	*tremolo	*	*	*	*	*	*	*	*
8r	.	8f#/	.	8a/L	.	.	4f#/	-nit	4a\	-nit	.	.
8D\L	.	8f#/	.	8a/	.	.	.	.	.	.	.	.
8F#\	.	8f#/	.	8a/	.	.	8r	.	8r	.	.	.
8D\J	.	8f#/J	.	8a/J	.	.	8f#/	in	8a\	in	.	.
*	*	*Xtremolo	*	*Xtremolo	*	*	*	*	*	*	*	*
=58	=58	=58	=58	=58	=58	=58	=58	=58	=58	=58	=58	=58
!LO:TX:t=P:problem:mixed beam	!	!	!	!	!	!	!	!	!	!	!	!
8GG/L	.	4g/	.	4b\	.	2.ryy	4g\	no-	4b\	no-	2.ryy	2.ryy
8G\J	.	.	.	.	.	.	.	.	.	.	.	.
*tremolo	*	*	*	*	*	*	*	*	*	*	*	*
!LO:TX:t=P:problem:mixed beam	!	!	!	!	!	!	!	!	!	!	!	!
8GG/L	.	8g/L	.	8b\L	.	.	8g\L	.	8b\L	.	.	.
8G\	.	8a/	.	8cc#X\	.	.	8a\J	.	8cc#X\	.	.	.
8GG/	.	8b/	.	8dd\	.	.	8b\	-mi-	8dd\	-mi-	.	.
8G\J	.	8g/J	.	8b\J	.	.	8g\	-ne	8b\J	-ne	.	.
*Xtremolo	*	*	*	*	*	*	*	*	*	*	*	*
!	!	!	!	!	!	!	!	!	!LO:PB:g=original	!	!	!
=59	=59	=59	=59	=59	=59	=59	=59	=59	=59	=59	=59	=59
8A\L	.	4f#/	.	4a/	.	2.ryy	4f#/	Do-	4a\	Do-	2.ryy	2.ryy
8A\J	.	.	.	.	.	.	.	.	.	.	.	.
8AA/L	.	4eT/	.	4g/	.	.	4e/	-mi-	4gT/	-mi-	.	.
8AAn/J	.	.	.	.	.	.	.	.	.	.	.	.
8D/L	.	8d/L	.	8f#/L	.	.	8d/	-ni	8f#/	-ni	.	.
8D/J	.	8f#/J	.	8a/J	.	.	8f#/	in	8a\	in	.	.
=60	=60	=60	=60	=60	=60	=60	=60	=60	=60	=60	=60	=60
!LO:TX:t=P:problem:mixed beam	!	!	!	!	!	!	!	!	!	!	!	!
8GG/L	.	4g/	.	4b\	.	2.ryy	4g\	no-	4b\	no-	2.ryy	2.ryy
8G\	.	.	.	.	.	.	.	.	.	.	.	.
8GG/	.	8g/L	.	8b\L	.	.	8g\L	.	8b\L	.	.	.
8G\	.	8a/	.	8cc#X\	.	.	8a\J	.	8cc#X\J	.	.	.
8GG/	.	8b/	.	8dd\	.	.	8b\	-mi-	8dd\	-mi-	.	.
!	!	!	!	!	!	!	!	!	!LO:SIC:v:l:s=-ne	!	!	!
8G\J	.	8g/J	.	8b\J	.	.	8g\	-ne	8b\	-ni	.	.
=61	=61	=61	=61	=61	=61	=61	=61	=61	=61	=61	=61	=61
!LO:TX:t=P:problem:mixed beam	!	!	!	!	!	!	!	!	!	!	!	!
8A\L	.	4f#/	.	4a/	.	2.ryy	4f#/	Do-	4a/	Do-	2.ryy	2.ryy
8A\	.	.	.	.	.	.	.	.	.	.	.	.
8AA/	.	4eT/	.	4gT/	.	.	4e/	-mi-	4g/	-mi-	.	.
8AAn/J	.	.	.	.	.	.	.	.	.	.	.	.
!	!	!	!	!LO:TX:t=P:problem:mixed beam	!	!	!	!	!	!	!	!
8D/L	.	8d/L	.	8f#/L	.	.	8d/	-ni	8f#/	-ni	.	.
8D/J	.	8f#/J	.	8dd\J	.	.	8f#/	in	8dd\	in	.	.
!LO:LB:g=original	!	!LO:LB:g=original	!	!LO:LB:g=original	!	!	!LO:LB:g=original	!	!	!	!	!
=62	=62	=62	=62	=62	=62	=62	=62	=62	=62	=62	=62	=62
!LO:TX:t=P:problem:mixed beam	!	!	!	!	!	!	!	!	!	!	!	!
8G\L	.	16a/LL	.	16cc#X\LL	.	2.ryy	16a/LL	no-	16cc#X\LL	no-	2.ryy	2.ryy
.	.	16g/	.	16b\	.	.	16g/JJ	.	16b\	.	.	.
8G\	.	16f#/	.	16a\	.	.	16f#/	-mi-	16a\	-mi-	.	.
.	.	16e/JJ	.	16g\JJ	.	.	16e/	-ne	16g\JJ	-ne	.	.
8A\	.	4d/	.	4f#/	.	.	4d/	Do-	4f#/	Do-	.	.
8A\	.	.	.	.	.	.	.	.	.	.	.	.
8AA/	.	4c#Xt/	.	4eT/	.	.	4c#X/	-mi-	4e/	-mi-	.	.
!LO:TX:a:t=vi	!	!	!	!	!	!	!	!	!	!	!	!
8AA/J	.	.	.	.	.	.	.	.	.	.	.	.
=63	=63	=63	=63	=63	=63	=63	=63	=63	=63	=63	=63	=63
!LO:TX:a:t=de	!	!	!	!	!	!	!	!	!	!	!	!
.	.	.	.	.	.	.	.	.	8qqe/	.	.	.
8D\L	.	4d/	.	4d/	.	2.ryy	4d/	-ni	4d/	-ni	2.ryy	2.ryy
8B\	.	.	.	.	.	.	.	.	.	.	.	.
8A\	.	4r	.	4r	.	.	4r	.	4r	.	.	.
8G\	.	.	.	.	.	.	.	.	.	.	.	.
8F#\	.	4r	.	4r	.	.	4r	.	4r	.	.	.
8E\J	.	.	.	.	.	.	.	.	.	.	.	.
=64	=64	=64	=64	=64	=64	=64	=64	=64	=64	=64	=64	=64
8D\	.	8f#/	.	8a/	.	2.ryy	8r	.	8r	.	2.ryy	2.ryy
8r	.	8r	.	8r	.	.	8f#/	Be-	8a\	Be-	.	.
8G\	.	8g/	.	8b/	.	.	8r	.	8r	.	.	.
8r	.	8r	.	8r	.	.	8g\	.	8b\	.	.	.
!	!	!	!	!	!	!	!	!	!LO:LB:g=original	!	!	!
8A\	.	8e/	.	8cc#X\	.	.	8r	.	8r	.	.	.
8r	.	8r	.	8r	.	.	8e/	-ne-	8cc#X\	ne-	.	.
=65	=65	=65	=65	=65	=65	=65	=65	=65	=65	=65	=65	=65
*	*	*tremolo	*	*	*	*	*	*	*	*	*	*
4D\	.	8f#/L	.	8dd\L	.	2.ryy	4f#/	-dic-	8dd\L	-Dic-	2.ryy	2.ryy
.	.	8f#/	.	8a\J	.	.	.	.	8a\J	.	.	.
*	*	*	*	*tremolo	*	*	*	*	*	*	*	*
8r	.	8f#/	.	8a/L	.	.	4f#/	-tus	4a\	-tus	.	.
8D\L	.	8f#/	.	8a/	.	.	.	.	.	.	.	.
8F#\	.	8f#/	.	8a/	.	.	4r	.	4r	.	.	.
8D\J	.	8f#/J	.	8a/J	.	.	.	.	.	.	.	.
*	*	*Xtremolo	*	*Xtremolo	*	*	*	*	*	*	*	*
=66	=66	=66	=66	=66	=66	=66	=66	=66	=66	=66	=66	=66
8D\	.	8f#/	.	8a/	.	2.ryy	8r	.	8r	.	2.ryy	2.ryy
8r	.	8r	.	8r	.	.	8f#/	qui	8a\	qui	.	.
8G\	.	8g/	.	8b\	.	.	8r	.	8r	.	.	.
8r	.	8r	.	8r	.	.	8g\	ve-	8b\	ve-	.	.
8A\	.	8e/	.	8cc#X\	.	.	8r	.	8r	.	.	.
8r	.	8r	.	8r	.	.	8e/	.	8cc#X\	.	.	.
=67	=67	=67	=67	=67	=67	=67	=67	=67	=67	=67	=67	=67
*	*	*tremolo	*	*	*	*	*	*	*	*	*	*
4D\	.	8f#/L	.	8dd\L	.	2.ryy	4f#/	.	8dd\L	.	2.ryy	2.ryy
.	.	8f#/	.	8a\J	.	.	.	.	8a\J	.	.	.
*	*	*	*	*tremolo	*	*	*	*	*	*	*	*
8r	.	8f#/	.	8a/L	.	.	4f#/	-nit	4a\	-nit	.	.
8D\L	.	8f#/	.	8a/	.	.	.	.	.	.	.	.
8F#\	.	8f#/	.	8a/	.	.	8r	.	8r	.	.	.
!	!	!	!	!LO:SIC:v:t=custos b	!	!	!	!	!	!	!	!
8D\J	.	8f#/J	.	8a/J	.	.	8f#/	in	8a\	in	.	.
*	*	*Xtremolo	*	*Xtremolo	*	*	*	*	*	*	*	*
!	!	!	!	!LO:PB:g=original	!	!	!	!	!	!	!	!
=68	=68	=68	=68	=68	=68	=68	=68	=68	=68	=68	=68	=68
*tremolo	*	*	*	*	*	*	*	*	*	*	*	*
!LO:TX:t=P:problem:mixed beam	!	!	!	!LO:TX:t=P:problem:dwa skreślone takty	!	!	!	!	!	!	!	!
8GG/L	.	4g/	.	4b\	.	2.ryy	4g\	no-	4b\	no-	2.ryy	2.ryy
8G\	.	.	.	.	.	.	.	.	.	.	.	.
8GG/	.	8g/L	.	8b\L	.	.	8g\L	.	8b\L	.	.	.
8G\	.	8a/	.	8cc#X\	.	.	8a\J	.	8cc#X\J	.	.	.
8GG/	.	8b/	.	8dd\	.	.	8b\	-mi-	8dd\	-mi-	.	.
8G\J	.	8g/J	.	8b\J	.	.	8g\	-ne	8b\	-ne	.	.
*Xtremolo	*	*	*	*	*	*	*	*	*	*	*	*
!	!	!	!	!	!	!	!LO:LB:g=original	!	!	!	!	!
=69	=69	=69	=69	=69	=69	=69	=69	=69	=69	=69	=69	=69
!LO:TX:t=P:problem:mixed beam	!	!	!	!	!	!	!	!	!	!	!	!
8A\L	.	4f#/	.	4a/	.	2.ryy	4f#/	Do-	4a\	Do-	2.ryy	2.ryy
8A\	.	.	.	.	.	.	.	.	.	.	.	.
8AA/	.	4eT/	.	4gT/	.	.	4e/	-mi-	4g\	-mi-	.	.
8AA/	.	.	.	.	.	.	.	.	.	.	.	.
!	!	!	!	!	!	!	!	!	!LO:LB:g=original	!	!	!
8D/	.	8d/L	.	8f#/L	.	.	8d/	-ni	8f#/	-ni	.	.
8D/J	.	8f#/J	.	8a/J	.	.	8f#/	in	8a\	in	.	.
!	!	!LO:LB:g=original	!	!	!	!	!	!	!	!	!	!
=70	=70	=70	=70	=70	=70	=70	=70	=70	=70	=70	=70	=70
*tremolo	*	*	*	*	*	*	*	*	*	*	*	*
!LO:TX:t=P:problem:t. 70-71 zapisane repetycją	!	!	!	!	!	!	!	!	!	!	!	!
!LO:TX:t=P:problem:mixed beam	!	!	!	!	!	!	!	!	!	!	!	!
8GG/Lyy	.	4g/	.	4b\	.	2.ryy	4g\	no-	4b\	no-	2.ryy	2.ryy
8G\yy	.	.	.	.	.	.	.	.	.	.	.	.
8GG/yy	.	8g/L	.	8b\L	.	.	8g\L	.	8b\L	.	.	.
8G\yy	.	8a/	.	8cc#X\	.	.	8a\J	.	8cc#X\J	.	.	.
8GG/yy	.	8b/	.	8dd\	.	.	8b\	-mi-	8dd\	-mi-	.	.
8G\Jyy	.	8g/J	.	8b\J	.	.	8g\	-ne	8b\	-ne	.	.
*Xtremolo	*	*	*	*	*	*	*	*	*	*	*	*
=71	=71	=71	=71	=71	=71	=71	=71	=71	=71	=71	=71	=71
!LO:TX:t=P:problem:mixed beam	!	!	!	!	!	!	!	!	!	!	!	!
8A\Lyy	.	4f#/	.	4a/	.	2.ryy	4f#/	Do-	4a\	Do-	2.ryy	2.ryy
8A\yy	.	.	.	.	.	.	.	.	.	.	.	.
8AA/yy	.	4eT/	.	4gT/	.	.	4e/	-mi-	4g/	-mi-	.	.
8AA/yy	.	.	.	.	.	.	.	.	.	.	.	.
!	!	!	!	!LO:TX:t=P:problem:mixed beam	!	!	!	!	!	!	!	!
8D/yy	.	8d/L	.	8f#/L	.	.	8d/	-ni	8f#/	-ni	.	.
8D/Jyy	.	8f#/J	.	8dd\J	.	.	8f#/	in	8dd\	in	.	.
=72	=72	=72	=72	=72	=72	=72	=72	=72	=72	=72	=72	=72
!LO:TX:t=P:problem:mixed beam	!	!	!	!	!	!	!	!	!	!	!	!
8G\Lyy	.	16a/LL	.	16cc#X/LL	.	2.ryy	16a/LL	no-	16cc#X\LL	no-	2.ryy	2.ryy
.	.	16g/	.	16b/	.	.	16g/JJ	.	16b\JJ	.	.	.
8G\yy	.	16f#/	.	16a/	.	.	16f#/	-mi-	16a\LL	-mi-	.	.
.	.	16e/JJ	.	16g/JJ	.	.	16e/	-ne	16g\JJ	-ne	.	.
8A\yy	.	4d/	.	4f#/	.	.	4d/	Do-	4f#/	Do-	.	.
8A\yy	.	.	.	.	.	.	.	.	.	.	.	.
8AA/yy	.	4c#X/	.	4e/	.	.	4c#Xt/	-mi-	4e/	-mi-	.	.
8AA/Jyy	.	.	.	.	.	.	.	.	.	.	.	.
!LO:LB:g=original	!	!	!	!LO:LB:g=original	!	!	!	!	!	!	!	!
=73	=73	=73	=73	=73	=73	=73	=73	=73	=73	=73	=73	=73
*tremolo	*	*	*	*	*	*	*	*	*	*	*	*
!LO:TX:t=tro	!	!LO:TX:a:t=Tutti	!	!	!	!	!	!	!	!	!	!
!LO:TX:b:t=Tut.	!	!	!LO:DY:b:t=fur.	!LO:TX:a:t=Tutti	!	!	!	!	!	!	!	!
8D/L	.	2d/	f	2d/	.	2.ryy	4d/	-ni	4d/	-ni	2.ryy	2.ryy
8D/	.	.	.	.	.	.	.	.	.	.	.	.
!	!	!	!	!	!LO:DY:b:t=for&colon;	!	!	!	!	!	!	!
8D/	.	.	.	.	f	.	4r	.	4r	.	.	.
8D/	.	.	.	.	.	.	.	.	.	.	.	.
8D/	.	8c#X/L	.	8e/L	.	.	4r	.	4r	.	.	.
8D/J	.	8d/J	.	8d/J	.	.	.	.	.	.	.	.
!	!	!	!	!	!	!	!	!	!LO:LB:g=original	!	!	!
=74	=74	=74	=74	=74	=74	=74	=74	=74	=74	=74	=74	=74
!LO:TX:t=P:problem:tremolo połączone belką z ósemkami	!	!	!	!	!	!	!	!	!	!	!	!
8D\L	.	8e/L	.	8g/L	.	2.ryy	0.r	.	0.r	.	2.ryy	2.ryy
8D\	.	8d/J	.	8f#/J	.	.	.	.	.	.	.	.
8D\	.	4d/	.	4f#/	.	.	.	.	.	.	.	.
8D\J	.	.	.	.	.	.	.	.	.	.	.	.
*Xtremolo	*	*	*	*	*	*	*	*	*	*	*	*
!LO:TX:t=P:problem:mixed beam	!	!	!	!	!	!	!	!	!	!	!	!
8A\L	.	8r	.	8r	.	.	.	.	.	.	.	.
8AA/J	.	8c#X/	.	8e/	.	.	.	.	.	.	.	.
=75	=75	=75	=75	=75	=75	=75	=75	=75	=75	=75	=75	=75
!	!	!LO:SIC:v:s=8c#/L	!	!	!	!	!	!	!	!	!	!
8D\L	.	8c/L	.	8e/L	.	2.ryy	.	.	.	.	2.ryy	2.ryy
8B\	.	8d/J	.	8d/J	.	.	.	.	.	.	.	.
8A\	.	4d/	.	4d/	.	.	.	.	.	.	.	.
8G\	.	.	.	.	.	.	.	.	.	.	.	.
8F#\	.	4r	.	4r	.	.	.	.	.	.	.	.
8E\J	.	.	.	.	.	.	.	.	.	.	.	.
=76	=76	=76	=76	=76	=76	=76	=76	=76	=76	=76	=76	=76
*tremolo	*	*	*	*	*	*	*	*	*	*	*	*
8D/L	.	2d/	.	2f#/	.	2.ryy	.	.	.	.	2.ryy	2.ryy
8D/	.	.	.	.	.	.	.	.	.	.	.	.
8D/	.	.	.	.	.	.	.	.	.	.	.	.
8D/	.	.	.	.	.	.	.	.	.	.	.	.
8D/	.	8e/L	.	8g/L	.	.	.	.	.	.	.	.
8D/J	.	8d/J	.	8e/J	.	.	.	.	.	.	.	.
=77	=77	=77	=77	=77	=77	=77	=77	=77	=77	=77	=77	=77
!LO:TX:t=P:problem:tremolo połączone belką z ósemkami	!	!	!	!	!	!	!	!	!	!	!	!
8D\L	.	8g/L	.	8b/L	.	2.ryy	.	.	.	.	2.ryy	2.ryy
8D\	.	8f#/J	.	8a/J	.	.	.	.	.	.	.	.
8D\	.	4f#/	.	4a/	.	.	.	.	.	.	.	.
8D\J	.	.	.	.	.	.	.	.	.	.	.	.
*Xtremolo	*	*	*	*	*	*	*	*	*	*	*	*
!LO:TX:t=P:problem:mixed beam	!	!	!	!	!	!	!	!	!	!	!	!
8A\L	.	8r	.	8r	.	.	.	.	.	.	.	.
8AA/J	.	8e/	.	8g/	.	.	.	.	.	.	.	.
!	!	!LO:LB:g=original	!	!	!	!	!	!	!	!	!	!
=78	=78	=78	=78	=78	=78	=78	=78	=78	=78	=78	=78	=78
8D\L	.	8e/L	.	8gT/L	.	2.ryy	0.r	.	0.r	.	2.ryy	2.ryy
8d\	.	8d/J	.	8f#/J	.	.	.	.	.	.	.	.
8A\	.	4d/	.	4f#/	.	.	.	.	.	.	.	.
8F#\J	.	.	.	.	.	.	.	.	.	.	.	.
4D/	.	4r	.	4r	.	.	.	.	.	.	.	.
=79	=79	=79	=79	=79	=79	=79	=79	=79	=79	=79	=79	=79
*	*	*^	*	*	*	*	*	*	*	*	*	*
*tremolo	*	*	*	*	*	*	*	*	*	*	*	*	*
!LO:TX:t=P:problem:tremolo połączone belką z ósemkami	!	!	!	!	!	!	!	!	!	!	!	!	!
!LO:TX:a:t=Solo.:problem:przekreślone	!	!	!	!	!	!	!	!	!	!	!	!	!
8D\L	.	4a/	4f#\	.	4a/	.	2.ryy	.	.	.	.	2.ryy	2.ryy
8D\	.	.	.	.	.	.	.	.	.	.	.	.	.
8D\	.	4a/	4f#\	.	16g/LL	.	.	.	.	.	.	.	.
.	.	.	.	.	16f#/	.	.	.	.	.	.	.	.
8D\J	.	.	.	.	16e/	.	.	.	.	.	.	.	.
.	.	.	.	.	16d/JJ	.	.	.	.	.	.	.	.
*Xtremolo	*	*	*	*	*	*	*	*	*	*	*	*	*
8G\L	.	4a/	4f#\	.	8dd\L	.	.	.	.	.	.	.	.
8G\J	.	.	.	.	8b\J	.	.	.	.	.	.	.	.
!LO:LB:g=original	!	!	!	!	!	!	!	!	!	!	!	!	!
=80	=80	=80	=80	=80	=80	=80	=80	=80	=80	=80	=80	=80	=80
*tremolo	*	*	*	*	*	*	*	*	*	*	*	*	*
!LO:TX:t=P:problem:tremolo połączone belką z ósemkami	!	!	!	!	!	!	!	!	!	!	!	!	!
8D\L	.	4a/	4f#\	.	4a/	.	2.ryy	.	.	.	.	2.ryy	2.ryy
8D\	.	.	.	.	.	.	.	.	.	.	.	.	.
8D\	.	4a/	4f#\	.	16g/LL	.	.	.	.	.	.	.	.
.	.	.	.	.	16f#/	.	.	.	.	.	.	.	.
8D\J	.	.	.	.	16e/	.	.	.	.	.	.	.	.
.	.	.	.	.	16d/JJ	.	.	.	.	.	.	.	.
*Xtremolo	*	*	*	*	*	*	*	*	*	*	*	*	*
8G\L	.	4a/	4f#\	.	8dd\L	.	.	.	.	.	.	.	.
8G\J	.	.	.	.	8b\J	.	.	.	.	.	.	.	.
*	*	*v	*v	*	*	*	*	*	*	*	*	*	*
!	!	!	!	!LO:LB:g=original	!	!	!	!	!	!	!	!
=81	=81	=81	=81	=81	=81	=81	=81	=81	=81	=81	=81	=81
4D/	.	(4f#/	.	4a/	.	2.ryy	.	.	.	.	2.ryy	2.ryy
4AA/	.	4e/)	.	4g/	.	.	.	.	.	.	.	.
4D/	.	4d/	.	4f#/	.	.	.	.	.	.	.	.
=82	=82	=82	=82	=82	=82	=82	=82	=82	=82	=82	=82	=82
4A\	.	4dT/	.	4f#/	.	2.ryy	0.r	.	0.r	.	2.ryy	2.ryy
4AA/	.	4c#X/	.	4e/	.	.	.	.	.	.	.	.
4r	.	4r	.	8r	.	.	.	.	.	.	.	.
.	.	.	.	8a/	.	.	.	.	.	.	.	.
=83	=83	=83	=83	=83	=83	=83	=83	=83	=83	=83	=83	=83
*	*	*^	*	*	*	*	*	*	*	*	*	*
*tremolo	*	*tremolo	*tremolo	*	*	*	*	*	*	*	*	*	*
8AA/L	.	8e/L	8c#X\L	.	4gg\	.	2.ryy	.	.	.	.	2.ryy	2.ryy
8AA/	.	8e/	8c#X\	.	.	.	.	.	.	.	.	.	.
8AA/	.	8e/	8c#X\	.	16ee\LL	.	.	.	.	.	.	.	.
.	.	.	.	.	16dd\	.	.	.	.	.	.	.	.
8AA/	.	8e/	8c#X\	.	16cc#X\	.	.	.	.	.	.	.	.
.	.	.	.	.	16b\JJ	.	.	.	.	.	.	.	.
8AA/	.	8e/	8c#X\	.	8a/L	.	.	.	.	.	.	.	.
8AA/J	.	8e/J	8c#X\J	.	8g/J	.	.	.	.	.	.	.	.
*	*	*v	*v	*	*	*	*	*	*	*	*	*	*
=84	=84	=84	=84	=84	=84	=84	=84	=84	=84	=84	=84	=84
8D\L	.	8f# 8A/L	.	8f#/L	.	2.ryy	.	.	.	.	2.ryy	2.ryy
8D\	.	8f# 8A/	.	8a/	.	.	.	.	.	.	.	.
8D\	.	8f# 8A/	.	8dd/	.	.	.	.	.	.	.	.
8D\	.	8f# 8A/	.	8ff#/J	.	.	.	.	.	.	.	.
8D\	.	8f# 8A/	.	8aa\L	.	.	.	.	.	.	.	.
8D\J	.	8f# 8A/J	.	8ff#\J	.	.	.	.	.	.	.	.
=85	=85	=85	=85	=85	=85	=85	=85	=85	=85	=85	=85	=85
8AA/L	.	8e 8c#X/L	.	4gg\	.	2.ryy	.	.	.	.	2.ryy	2.ryy
8AA/	.	8e 8c#X/	.	.	.	.	.	.	.	.	.	.
8AA/	.	8e 8c#X/	.	16ee\LL	.	.	.	.	.	.	.	.
.	.	.	.	16dd\	.	.	.	.	.	.	.	.
8AA/	.	8e 8c#X/	.	16cc#X\	.	.	.	.	.	.	.	.
.	.	.	.	16b\JJ	.	.	.	.	.	.	.	.
8AA/	.	8e 8c#X/	.	8a/L	.	.	.	.	.	.	.	.
8AA/J	.	8e 8c#X/J	.	8g/J	.	.	.	.	.	.	.	.
=86	=86	=86	=86	=86	=86	=86	=86	=86	=86	=86	=86	=86
8D\L	.	8f# 8A/L	.	8f#\L	.	2.ryy	0.r	.	1.r	.	2.ryy	2.ryy
8D\	.	8f# 8A/	.	8a\	.	.	.	.	.	.	.	.
8D\	.	8f# 8A/	.	8dd\	.	.	.	.	.	.	.	.
8D\	.	8f# 8A/	.	8ff#\	.	.	.	.	.	.	.	.
8D\	.	8f# 8A/	.	8aa\	.	.	.	.	.	.	.	.
8D\J	.	8f# 8A/J	.	8ff#\J	.	.	.	.	.	.	.	.
*Xtremolo	*	*Xtremolo	*	*	*	*	*	*	*	*	*	*
=87	=87	=87	=87	=87	=87	=87	=87	=87	=87	=87	=87	=87
*	*	*Xtuplet	*	*Xtuplet	*	*	*	*	*	*	*	*
!LO:TX:t=P:problem:mixed beam	!	!	!	!LO:TUP:a:problem:klamra łukowa, kropka zamiast numeru	!	!	!	!	!	!	!	!
8G\L	.	12gg\L	.	12bb\L	.	2.ryy	.	.	.	.	2.ryy	2.ryy
.	.	12ff#\	.	12aa\	.	.	.	.	.	.	.	.
8G\	.	.	.	.	.	.	.	.	.	.	.	.
.	.	12ee\J	.	12gg\J	.	.	.	.	.	.	.	.
8A\	.	4dd\	.	4ff#\	.	.	.	.	.	.	.	.
8A\	.	.	.	.	.	.	.	.	.	.	.	.
!	!	!LO:SIC:v:s=4cc#T\	!	!	!	!	!	!	!	!	!	!
8AA/	.	4ccT\	.	4ee\	.	.	.	.	.	.	.	.
8AA/J	.	.	.	.	.	.	.	.	.	.	.	.
!	!	!LO:LB:g=original	!	!	!	!	!	!	!	!	!	!
=88	=88	=88	=88	=88	=88	=88	=88	=88	=88	=88	=88	=88
!	!	!	!	!LO:TX:t=P:problem:mixed beam	!	!	!	!	!	!	!	!
!LO:TX:a:t=Solo	!LO:DY:b:t=p&colon;	!LO:TX:a:t=Solo.	!LO:DY:b:t=pia	!LO:TX:a:t=Solo	!LO:DY:b:t=pia	!	!	!	!	!	!	!
4D/	p	4dd\	p	8ee\L	p	2.ryy	.	.	4.dd\	Be-	2.ryy	2.ryy
.	.	.	.	8dd\	.	.	.	.	.	.	.	.
4r	.	4r	.	8dd\	.	.	.	.	.	.	.	.
.	.	.	.	8ee\	.	.	.	.	8ee\L	.	.	.
4r	.	4r	.	8ffn\	.	.	.	.	8ffn\J	.	.	.
.	.	.	.	8a/J	.	.	.	.	8a\	-ne-	.	.
!	!	!	!	!LO:LB:g=original	!	!	!	!	!	!	!	!
=89	=89	=89	=89	=89	=89	=89	=89	=89	=89	=89	=89	=89
8r	.	8r	.	4aT/	.	2.ryy	.	.	4aT\	-dic-	2.ryy	2.ryy
8E\L	.	4b\	.	.	.	.	.	.	.	.	.	.
8G#X\	.	.	.	4g#X/	.	.	.	.	4g#X\	-tus	.	.
8B\	.	4b\	.	.	.	.	.	.	.	.	.	.
8G#\	.	.	.	8r	.	.	.	.	8r	.	.	.
8E\J	.	8b\	.	8e/	.	.	.	.	8e/	qui	.	.
=90	=90	=90	=90	=90	=90	=90	=90	=90	=90	=90	=90	=90
4E\	.	4b\	.	8e/L	.	2.ryy	1.r	.	8e/L	ve-	2.ryy	2.ryy
.	.	.	.	8g#X/	.	.	.	.	8g#X/J	.	.	.
4r	.	4r	.	8b/	.	.	.	.	8b\L	.	.	.
.	.	.	.	8dd/	.	.	.	.	8dd\J	.	.	.
4E\	.	4b\	.	8cc/	.	.	.	.	8cc\	-nit	.	.
.	.	.	.	8b/J	.	.	.	.	8b\	qui	.	.
!LO:LB:g=original	!	!	!	!	!	!	!	!	!	!	!	!
=91	=91	=91	=91	=91	=91	=91	=91	=91	=91	=91	=91	=91
8A\L	.	8a/L	.	16cc\LL	.	2.ryy	.	.	16cc\LL	ve-	2.ryy	2.ryy
.	.	.	.	16b\	.	.	.	.	16b\	.	.	.
8Fn\	.	8g#X/J	.	16a\	.	.	.	.	16a\	.	.	.
.	.	.	.	16b\JJ	.	.	.	.	16b\JJ	.	.	.
8E\	.	4a/	.	4a/	.	.	.	.	4a\	-nit	.	.
8D\	.	.	.	.	.	.	.	.	.	.	.	.
8Cn\	.	4r	.	4r	.	.	.	.	4r	.	.	.
8BB\J	.	.	.	.	.	.	.	.	.	.	.	.
=92	=92	=92	=92	=92	=92	=92	=92	=92	=92	=92	=92	=92
!	!	!LO:TX:t=P:problem:mixed beam	!	!	!LO:DY:b:t=pia	!	!	!	!LO:TX:a:t=3.	!	!	!
4AA/	.	8cc\L	.	4a/	p	2.ryy	4.cc\	Be-	1.r	.	2.ryy	2.ryy
.	.	8cc\	.	.	.	.	.	.	.	.	.	.
4r	.	8cc\	.	4r	.	.	.	.	.	.	.	.
.	.	8dd\	.	.	.	.	8dd\L	.	.	.	.	.
4r	.	8ee\	.	4r	.	.	8ee\J	.	.	.	.	.
.	.	8g/J	.	.	.	.	8g\	-ne-	.	.	.	.
=93	=93	=93	=93	=93	=93	=93	=93	=93	=93	=93	=93	=93
8r	.	4gT/	.	8r	.	2.ryy	4g/	-dic-	.	.	2.ryy	2.ryy
8D\L	.	.	.	4a/	.	.	.	.	.	.	.	.
8F#X\	.	4f#/	.	.	.	.	4f#/	-tus	.	.	.	.
8A\	.	.	.	4a/	.	.	.	.	.	.	.	.
8F#\	.	8r	.	.	.	.	8r	.	.	.	.	.
8D\J	.	8d/	.	8a/	.	.	8d/	qui	.	.	.	.
=94	=94	=94	=94	=94	=94	=94	=94	=94	=94	=94	=94	=94
4D/	.	8d/L	.	4a/	.	2.ryy	8d/L	ve-	2.r	.	2.ryy	2.ryy
.	.	8f#/	.	.	.	.	8f#/	.	.	.	.	.
4r	.	8a/	.	4r	.	.	8a/	.	.	.	.	.
.	.	8cc/	.	.	.	.	8cc/J	.	.	.	.	.
!	!	!	!	!	!	!	!LO:LB:g=original	!	!	!	!	!
4D/	.	8b/	.	4a/	.	.	8b\	-nit	.	.	.	.
.	.	8a/J	.	.	.	.	8a\	qui	.	.	.	.
!	!	!	!	!	!	!	!	!	!LO:LB:g=original	!	!	!
=95	=95	=95	=95	=95	=95	=95	=95	=95	=95	=95	=95	=95
*	*	*	*	*	*	*	*Xtuplet	*	*	*	*	*
8G\L	.	12b/L	.	12g/L	.	2.ryy	12b\L	ve-	4r	.	2.ryy	2.ryy
.	.	12a/	.	12f#/	.	.	12a\	.	.	.	.	.
8D\	.	.	.	.	.	.	.	.	.	.	.	.
.	.	12g/J	.	12g/J	.	.	12g\J	.	.	.	.	.
8BB\	.	4g/	.	4g/	.	.	4g\	-nit	4r	.	.	.
8D\J	.	.	.	.	.	.	.	.	.	.	.	.
4GG/	.	4b/	.	4dd\	.	.	4b\	in	4dd\	in	.	.
!	!	!LO:LB:g=original	!	!	!	!	!	!	!	!	!	!
=96	=96	=96	=96	=96	=96	=96	=96	=96	=96	=96	=96	=96
*tremolo	*	*	*	*	*	*	*	*	*	*	*	*
8C/L	.	4cc\	.	4ee\	.	2.ryy	4cc\	no-	4ee\	no-	2.ryy	2.ryy
8C/	.	.	.	.	.	.	.	.	.	.	.	.
8C/	.	8cc\L	.	8ee\L	.	.	8cc\L	.	8ee\L	.	.	.
8C/	.	8dd\	.	8ff#\	.	.	8dd\J	.	8ff#\J	.	.	.
8C/	.	8ee\	.	8gg\	.	.	8ee\	-mi-	8gg\	-mi-	.	.
8C/J	.	8cc\J	.	8ee\J	.	.	8cc\	-ne	8ee\	-ne	.	.
*Xtremolo	*	*	*	*	*	*	*	*	*	*	*	*
!	!	!	!	!LO:LB:g=original	!	!	!	!	!	!	!	!
=97	=97	=97	=97	=97	=97	=97	=97	=97	=97	=97	=97	=97
8G\L	.	4b/	.	4dd\	.	2.ryy	4b\	Do-	4dd\	Do-	2.ryy	2.ryy
8G\	.	.	.	.	.	.	.	.	.	.	.	.
8D\	.	4aT/	.	4ccT\	.	.	4aT\	-mi-	4ccT\	-mi-	.	.
8D\J	.	.	.	.	.	.	.	.	.	.	.	.
8GG/L	.	8g/L	.	8b\L	.	.	8g\	-ni	8b\	-ni	.	.
8GG/J	.	8b/J	.	8dd\J	.	.	8b\	in	8dd\	in	.	.
=98	=98	=98	=98	=98	=98	=98	=98	=98	=98	=98	=98	=98
*tremolo	*	*	*	*	*	*	*	*	*	*	*	*
8C/L	.	4cc\	.	4ee\	.	2.ryy	4cc\	no-	4ee\	no-	2.ryy	2.ryy
8C/	.	.	.	.	.	.	.	.	.	.	.	.
8C/	.	8cc\L	.	8ee\L	.	.	8cc\L	.	8ee\L	.	.	.
8C/	.	8dd\	.	8ff#\	.	.	8dd\J	.	8ff#\J	.	.	.
8C/	.	8ee\	.	8gg\	.	.	8ee\	-mi-	8gg\	-mi-	.	.
8C/J	.	8cc\J	.	8ee\J	.	.	8cc\	-ne	8ee\	-ne	.	.
*Xtremolo	*	*	*	*	*	*	*	*	*	*	*	*
=99	=99	=99	=99	=99	=99	=99	=99	=99	=99	=99	=99	=99
8G\L	.	4b/	.	4dd\	.	2.ryy	4b\	Do-	4dd\	Do-	2.ryy	2.ryy
8G\	.	.	.	.	.	.	.	.	.	.	.	.
8D\	.	4aT/	.	4ccT\	.	.	4aT\	-mi-	4ccT\	-mi-	.	.
8D\J	.	.	.	.	.	.	.	.	.	.	.	.
8GG/L	.	8g/L	.	8b\L	.	.	8g\	-ni	8b\	-ni	.	.
8GG/J	.	8b/J	.	8gg\J	.	.	8b\	in	8gg\	in	.	.
=100	=100	=100	=100	=100	=100	=100	=100	=100	=100	=100	=100	=100
!LO:TX:t=P:problem:mixed beam	!	!	!	!	!	!	!	!	!	!	!	!
8C/L	.	16dd\LL	.	16ffn\LL	.	2.ryy	16dd\LL	no-	16ffn\LL	no-	2.ryy	2.ryy
.	.	16cc\	.	16ee\	.	.	16cc\JJ	.	16ee\	.	.	.
8c\J	.	16b\	.	16dd\	.	.	16b\	-mi-	16dd\	-mi-	.	.
.	.	16a\JJ	.	16cc\JJ	.	.	16a\	-ne	16cc\JJ	-ne	.	.
!LO:LB:g=original	!	!	!	!	!	!	!	!	!	!	!	!
!LO:TX:t=P:problem:mixed beam	!	!	!	!	!	!	!	!	!	!	!	!
8d\L	.	4g/	.	4b\	.	.	4g\	Do-	4b\	Do-	.	.
8d\	.	.	.	.	.	.	.	.	.	.	.	.
8D/	.	4f#t/	.	4aT\	.	.	4f#t\	-mi-	4aT\	-mi-	.	.
8D/J	.	.	.	.	.	.	.	.	.	.	.	.
!	!	!	!	!	!	!	!	!	!LO:LB:g=original	!	!	!
=101	=101	=101	=101	=101	=101	=101	=101	=101	=101	=101	=101	=101
!	!	!	!	!	!	!	!	!	!LO:SIC:v:l:s=-ni	!	!	!
8G\L	.	4g/	.	4g/	.	2.ryy	4g/	-ni	4g\	-ne	2.ryy	2.ryy
8E\	.	.	.	.	.	.	.	.	.	.	.	.
8D\	.	4r	.	4r	.	.	4r	.	4r	.	.	.
8C\	.	.	.	.	.	.	.	.	.	.	.	.
8BB\	.	4r	.	4r	.	.	4r	.	4r	.	.	.
8AA\J	.	.	.	.	.	.	.	.	.	.	.	.
=102	=102	=102	=102	=102	=102	=102	=102	=102	=102	=102	=102	=102
!	!	!	!	!LO:TX:a:t=tro	!	!	!	!	!	!	!	!
8GG/	.	8b\	.	8dd\	.	2.ryy	8r	.	8r	.	2.ryy	2.ryy
8r	.	8r	.	8r	.	.	8b\	Be-	8dd\	Be-	.	.
8C/	.	8cc\	.	8ee\	.	.	8r	.	8r	.	.	.
8r	.	8r	.	8r	.	.	8cc\	-ne-	8ee\	.	.	.
8D/	.	8a/	.	8ff#\	.	.	8r	.	8r	.	.	.
8r	.	8r	.	8r	.	.	8a\	-ne-	8ff#\	ne-	.	.
!	!	!	!	!	!	!	!LO:LB:g=original	!	!	!	!	!
=103	=103	=103	=103	=103	=103	=103	=103	=103	=103	=103	=103	=103
*	*	*tremolo	*	*	*	*	*	*	*	*	*	*
4G\	.	8b\L	.	8gg\L	.	2.ryy	4b\	-dic-	8gg\L	-dic-	2.ryy	2.ryy
.	.	8b\	.	8dd\J	.	.	.	.	8dd\J	.	.	.
*	*	*	*	*tremolo	*	*	*	*	*	*	*	*
8r	.	8b\	.	8dd\L	.	.	4b\	-tus	4dd\	-tus	.	.
8GG/L	.	8b\	.	8dd\	.	.	.	.	.	.	.	.
8BB/	.	8b\	.	8dd\	.	.	4r	.	4r	.	.	.
!	!	!	!	!LO:SIC:v:t=custos cc	!	!	!	!	!	!	!	!
8GG/J	.	8b\J	.	8dd\J	.	.	.	.	.	.	.	.
*	*	*Xtremolo	*	*Xtremolo	*	*	*	*	*	*	*	*
!	!	!LO:LB:g=original	!	!LO:LB:g=original	!	!	!	!	!	!	!	!
=104	=104	=104	=104	=104	=104	=104	=104	=104	=104	=104	=104	=104
8GG/	.	8b\	.	8dd\	.	2.ryy	8r	.	8r	.	2.ryy	2.ryy
8r	.	8r	.	8r	.	.	8b\	qui	8dd\	qui	.	.
8C/	.	8cc\	.	8ee\	.	.	8r	.	8r	.	.	.
8r	.	8r	.	8r	.	.	8cc\	ve-	8ee\	ve-	.	.
8D/	.	8a/	.	8ff#\	.	.	8r	.	8r	.	.	.
8r	.	8r	.	8r	.	.	8a\	.	8ff#\	.	.	.
=105	=105	=105	=105	=105	=105	=105	=105	=105	=105	=105	=105	=105
*	*	*tremolo	*	*	*	*	*	*	*	*	*	*
4G\	.	8b\L	.	8gg\L	.	2.ryy	4b\	.	8gg\L	.	2.ryy	2.ryy
.	.	8b\	.	8dd\J	.	.	.	.	8dd\J	.	.	.
*	*	*	*	*tremolo	*	*	*	*	*	*	*	*
8r	.	8b\	.	8dd\L	.	.	4b\	-nit	4dd\	-nit	.	.
8GG/L	.	8b\	.	8dd\	.	.	.	.	.	.	.	.
8BB/	.	8b\	.	8dd\	.	.	8r	.	8r	.	.	.
8GG/J	.	8b\J	.	8dd\J	.	.	8b\	in	8dd\	in	.	.
*	*	*Xtremolo	*	*Xtremolo	*	*	*	*	*	*	*	*
=106	=106	=106	=106	=106	=106	=106	=106	=106	=106	=106	=106	=106
*tremolo	*	*	*	*	*	*	*	*	*	*	*	*
8C/L	.	4cc\	.	4ee\	.	2.ryy	4cc\	no-	4ee\	no-	2.ryy	2.ryy
8C/	.	.	.	.	.	.	.	.	.	.	.	.
8C/	.	8cc\L	.	8ee\L	.	.	8cc\L	.	8ee\L	.	.	.
8C/	.	8dd\	.	8ff#\	.	.	8dd\J	.	8ff#\J	.	.	.
8C/	.	8ee\	.	8gg\	.	.	8ee\	-mi-	8gg\	-mi-	.	.
8C/J	.	8cc\J	.	8ee\J	.	.	8cc\	-ne	8ee\	-ne	.	.
*Xtremolo	*	*	*	*	*	*	*	*	*	*	*	*
!	!	!	!	!	!	!	!	!	!LO:LB:g=original	!	!	!
=107	=107	=107	=107	=107	=107	=107	=107	=107	=107	=107	=107	=107
8G\L	.	4b/	.	4dd\	.	2.ryy	4b\	Do-	4dd\	Do-	2.ryy	2.ryy
8G\	.	.	.	.	.	.	.	.	.	.	.	.
8D\	.	4aT/	.	4ccT\	.	.	4aT\	-mi-	4ccT\	-mi-	.	.
8D\J	.	.	.	.	.	.	.	.	.	.	.	.
8GG/L	.	8g/L	.	8b\L	.	.	8g\	-ni	8b\	-ni	.	.
8GG/J	.	8b/J	.	8dd\J	.	.	8b\	in	8dd\	in	.	.
=108	=108	=108	=108	=108	=108	=108	=108	=108	=108	=108	=108	=108
*tremolo	*	*	*	*	*	*	*	*	*	*	*	*
8C/L	.	4cc\	.	4ee\	.	2.ryy	4cc\	no-	4ee\	no-	2.ryy	2.ryy
8C/	.	.	.	.	.	.	.	.	.	.	.	.
8C/	.	8cc\L	.	8ee\L	.	.	8cc\L	.	8ee\L	.	.	.
8C/	.	8dd\	.	8ff#\	.	.	8dd\J	.	8ff#\J	.	.	.
8C/	.	8ee\	.	8gg\	.	.	8ee\	-mi-	8gg\	-mi-	.	.
8C/J	.	8cc\J	.	8ee\J	.	.	8cc\	-ne	8ee\	-ne	.	.
*Xtremolo	*	*	*	*	*	*	*	*	*	*	*	*
=109	=109	=109	=109	=109	=109	=109	=109	=109	=109	=109	=109	=109
8G\L	.	4b/	.	4dd\	.	2.ryy	4b\	Do-	4dd\	Do-	2.ryy	2.ryy
8G\	.	.	.	.	.	.	.	.	.	.	.	.
8D\	.	4aT/	.	4ccT\	.	.	4aT\	-mi-	4cc\	-mi-	.	.
8D\J	.	.	.	.	.	.	.	.	.	.	.	.
8GG/L	.	8g/L	.	8b\L	.	.	8g\	-ni	8b\	-ni	.	.
8GG/J	.	8b/J	.	8gg\J	.	.	8b\	in	8gg\	in	.	.
=110	=110	=110	=110	=110	=110	=110	=110	=110	=110	=110	=110	=110
!LO:TX:t=P:problem:mixed beam	!	!	!	!	!	!	!	!	!	!	!	!
8C/L	.	16dd\LL	.	16ffn\LL	.	2.ryy	16dd\LL	no-	16ffn\LL	no-	2.ryy	2.ryy
.	.	16cc\	.	16ee\	.	.	16cc\JJ	.	16ee\JJ	.	.	.
8c\	.	16b\	.	16dd\	.	.	16b\	-mi-	16dd\	-mi-	.	.
.	.	16a\JJ	.	16cc\JJ	.	.	16a\	-ne	16cc\	-ne	.	.
8d\	.	4g/	.	4b/	.	.	4g/	Do-	4b\	Do-	.	.
8d\J	.	.	.	.	.	.	.	.	.	.	.	.
!	!	!	!	!LO:TX:a:t=vi	!	!	!	!	!	!	!	!
8D/L	.	4f#t/	.	4a/	.	.	4f#/	-mi-	4aT\	-mi-	.	.
8D/J	.	.	.	.	.	.	.	.	.	.	.	.
!	!	!	!	!LO:LB:g=original	!	!	!	!	!	!	!	!
=111	=111	=111	=111	=111	=111	=111	=111	=111	=111	=111	=111	=111
!LO:TX:t=P:problem:t. 111-120 zapisane repetycją	!	!	!	!LO:TX:a:t=de	!	!	!	!	!	!	!	!
8G\Lyy	.	4g/	.	4g/	.	2.ryy	4g/	-ni	4g/	-ni	2.ryy	2.ryy
8E\yy	.	.	.	.	.	.	.	.	.	.	.	.
8D\yy	.	4r	.	4r	.	.	4r	.	4r	.	.	.
8C\yy	.	.	.	.	.	.	.	.	.	.	.	.
8BB\yy	.	4r	.	4r	.	.	4r	.	4r	.	.	.
!	!	!	!	!LO:TX:a:t=Re-	!	!	!	!	!	!	!	!
8AA\Jyy	.	.	.	.	.	.	.	.	.	.	.	.
!	!	!LO:LB:g=original	!	!	!	!	!LO:LB:g=original	!	!	!	!	!
=112	=112	=112	=112	=112	=112	=112	=112	=112	=112	=112	=112	=112
!	!	!	!	!LO:TX:t=P:problem:t. 112-120 zapisane repetycją	!	!	!	!	!	!	!	!
8GG/yy	.	8b\	.	8dd\yy	.	2.ryy	8r	.	8r	.	2.ryy	2.ryy
8ryy	.	8r	.	8ryy	.	.	8b\	Be-	8dd\	Be-	.	.
8C/yy	.	8cc\	.	8ee\yy	.	.	8r	.	8r	.	.	.
8ryy	.	8r	.	8ryy	.	.	8cc\	.	8ee\	.	.	.
!	!	!	!	!	!	!	!	!	!LO:LB:g=original	!	!	!
8D/yy	.	8a/	.	8ff#\yy	.	.	8r	.	8r	.	.	.
8ryy	.	8r	.	8ryy	.	.	8a\	-ne-	8ff#\	ne-	.	.
=113	=113	=113	=113	=113	=113	=113	=113	=113	=113	=113	=113	=113
*	*	*tremolo	*	*	*	*	*	*	*	*	*	*
4G\yy	.	8b\L	.	8gg\Lyy	.	2.ryy	4b\	-dic-	8gg\L	-dic-	2.ryy	2.ryy
.	.	8b\	.	8dd\Jyy	.	.	.	.	8dd\J	.	.	.
*	*	*	*	*tremolo	*	*	*	*	*	*	*	*
8ryy	.	8b\	.	8dd\Lyy	.	.	4b\	-tus	4dd\	-tus	.	.
8GG/Lyy	.	8b\	.	8dd\yy	.	.	.	.	.	.	.	.
8BB/yy	.	8b\	.	8dd\yy	.	.	4r	.	4r	.	.	.
!	!	!	!	!LO:SIC:v:t=custos cc	!	!	!	!	!	!	!	!
8GG/Jyy	.	8b\J	.	8dd\Jyy	.	.	.	.	.	.	.	.
*	*	*Xtremolo	*	*Xtremolo	*	*	*	*	*	*	*	*
!	!	!	!	!LO:LB:g=original	!	!	!	!	!	!	!	!
=114	=114	=114	=114	=114	=114	=114	=114	=114	=114	=114	=114	=114
8GG/yy	.	8b\	.	8dd\yy	.	2.ryy	8r	.	8r	.	2.ryy	2.ryy
8ryy	.	8r	.	8ryy	.	.	8b\	qui	8dd\	qui	.	.
8C/yy	.	8cc\	.	8ee\yy	.	.	8r	.	8r	.	.	.
8ryy	.	8r	.	8ryy	.	.	8cc\	ve-	8ee\	ve-	.	.
8D/yy	.	8a/	.	8ff#\yy	.	.	8r	.	8r	.	.	.
8ryy	.	8r	.	8ryy	.	.	8a\	.	8ff#\	.	.	.
=115	=115	=115	=115	=115	=115	=115	=115	=115	=115	=115	=115	=115
*	*	*tremolo	*	*	*	*	*	*	*	*	*	*
4G\yy	.	8b\L	.	8gg\Lyy	.	2.ryy	4b\	.	8gg\L	.	2.ryy	2.ryy
.	.	8b\	.	8dd\Jyy	.	.	.	.	8dd\J	.	.	.
*	*	*	*	*tremolo	*	*	*	*	*	*	*	*
8ryy	.	8b\	.	8dd\Lyy	.	.	4b\	-nit	4dd\	-nit	.	.
8GG/Lyy	.	8b\	.	8dd\yy	.	.	.	.	.	.	.	.
8BB/yy	.	8b\	.	8dd\yy	.	.	8r	.	8r	.	.	.
8GG/Jyy	.	8b\J	.	8dd\Jyy	.	.	8b\	in	8dd\	in	.	.
*	*	*	*	*Xtremolo	*	*	*	*	*	*	*	*
*	*	*Xtremolo	*	*	*	*	*	*	*	*	*	*
=116	=116	=116	=116	=116	=116	=116	=116	=116	=116	=116	=116	=116
*tremolo	*	*	*	*	*	*	*	*	*	*	*	*
8C/Lyy	.	4cc\	.	4ee\yy	.	2.ryy	4cc\	no-	4ee\	no-	2.ryy	2.ryy
8C/yy	.	.	.	.	.	.	.	.	.	.	.	.
8C/yy	.	8cc\L	.	8ee\Lyy	.	.	8cc\L	.	8ee\L	.	.	.
8C/yy	.	8dd\	.	8ff#\yy	.	.	8dd\J	.	8ff#\J	.	.	.
8C/yy	.	8ee\	.	8gg\yy	.	.	8ee\L	-mi-	8gg\	-mi-	.	.
8C/Jyy	.	8cc\J	.	8ee\Jyy	.	.	8cc\J	-ne	8ee\	-ne	.	.
*Xtremolo	*	*	*	*	*	*	*	*	*	*	*	*
=117	=117	=117	=117	=117	=117	=117	=117	=117	=117	=117	=117	=117
8G\Lyy	.	4b/	.	4dd\yy	.	2.ryy	4b\	Do-	4dd\	Do-	2.ryy	2.ryy
8G\yy	.	.	.	.	.	.	.	.	.	.	.	.
8D\yy	.	4aT/	.	4ccT\yy	.	.	4a\	-mi-	4ccT\	-mi-	.	.
8D\Jyy	.	.	.	.	.	.	.	.	.	.	.	.
8GG/Lyy	.	8g/L	.	8b\Lyy	.	.	8g\L	-ni	8b\	-ni	.	.
8GG/Jyy	.	8b/J	.	8dd\Jyy	.	.	8b\J	.	8dd\	in	.	.
!	!	!	!	!	!	!	!	!	!LO:LB:g=original	!	!	!
=118	=118	=118	=118	=118	=118	=118	=118	=118	=118	=118	=118	=118
*tremolo	*	*	*	*	*	*	*	*	*	*	*	*
8C/Lyy	.	4cc\	.	4ee\yy	.	2.ryy	4cc\	in	4ee\	no-	2.ryy	2.ryy
8C/yy	.	.	.	.	.	.	.	.	.	.	.	.
8C/yy	.	8cc\L	.	8ee\Lyy	.	.	8cc\L	no-	8ee\L	.	.	.
8C/yy	.	8dd\	.	8ff#\yy	.	.	8dd\J	.	8ff#\J	.	.	.
8C/yy	.	8ee\	.	8gg\yy	.	.	8ee\	-mi-	8gg\	-mi-	.	.
8C/Jyy	.	8cc\J	.	8ee\Jyy	.	.	8cc\	-ne	8ee\	-ne	.	.
*Xtremolo	*	*	*	*	*	*	*	*	*	*	*	*
=119	=119	=119	=119	=119	=119	=119	=119	=119	=119	=119	=119	=119
8G\Lyy	.	4b/	.	4dd\yy	.	2.ryy	4b\	Do-	4dd\	Do-	2.ryy	2.ryy
8G\yy	.	.	.	.	.	.	.	.	.	.	.	.
8D\yy	.	4aT/	.	4ccT\yy	.	.	4aT\	-mi-	4cc\	-mi-	.	.
8D\Jyy	.	.	.	.	.	.	.	.	.	.	.	.
8GG/Lyy	.	8g/L	.	8b\Lyy	.	.	8g\	-ni	8b\	-ni	.	.
8GG/Jyy	.	8b/J	.	8gg\Jyy	.	.	8b\	in	8gg\	in	.	.
!	!	!LO:LB:g=original	!	!	!	!	!	!	!	!	!	!
=120	=120	=120	=120	=120	=120	=120	=120	=120	=120	=120	=120	=120
!LO:TX:t=P:problem:mixed beam	!	!	!	!	!	!	!	!	!	!	!	!
8C/Lyy	.	16dd\LL	.	16ffn\LLyy	.	2.ryy	16dd\LL	no-	16ffn\LL	no-	2.ryy	2.ryy
.	.	16cc\	.	16ee\yy	.	.	16cc\JJ	.	16ee\JJ	.	.	.
8c\yy	.	16b/	.	16dd\yy	.	.	16b\	-mi-	16dd\	-mi-	.	.
.	.	16a/JJ	.	16cc\JJyy	.	.	16a\	-ne	16cc\	-ne	.	.
8d\yy	.	4g/	.	4b/yy	.	.	4g/	Do-	4b\	Do-	.	.
8d\Jyy	.	.	.	.	.	.	.	.	.	.	.	.
!	!	!LO:TX:b:t=Da Capo	!	!LO:TX:b:t=Da Capo\nBenedictus\nOSanna Da Cap(o)	!	!	!	!	!	!	!	!
8D/Lyy	.	4f#/	.	4a/yy	.	.	4f#/	-mi-	4a\	-mi-	.	.
!LO:TX:b:t=Bened&colon; \nDa Capo\nOSanna\nDa Capo	!	!	!	!	!	!	!	!	!	!	!	!
8D/Jyy	.	.	.	.	.	.	.	.	.	.	.	.
=121	=121	=121	=121	=121	=121	=121	=121	=121	=121	=121	=121	=121
2.ryy	.	2.ryy	.	2.ryy	.	2.ryy	4g/	-ni	4g/	-ni	2.ryy	2.ryy
.	.	.	.	.	.	.	4r	.	4r	.	.	.
.	.	.	.	.	.	.	4r	.	4r	.	.	.
=122	=122	=122	=122	=122	=122	=122	=122	=122	=122	=122	=122	=122
!	!	!	!	!	!	!	!LO:TX:a:t=36	!	!	!	!	!
2.ryy	.	2.ryy	.	2.ryy	.	2.ryy	2.r	.	0.r	.	2.ryy	2.ryy
=123	=123	=123	=123	=123	=123	=123	=123	=123	=123	=123	=123	=123
2.ryy	.	2.ryy	.	2.ryy	.	2.ryy	2.r	.	.	.	2.ryy	2.ryy
=124	=124	=124	=124	=124	=124	=124	=124	=124	=124	=124	=124	=124
2.ryy	.	2.ryy	.	2.ryy	.	2.ryy	2.r	.	.	.	2.ryy	2.ryy
=125	=125	=125	=125	=125	=125	=125	=125	=125	=125	=125	=125	=125
2.ryy	.	2.ryy	.	2.ryy	.	2.ryy	2.r	.	.	.	2.ryy	2.ryy
=126	=126	=126	=126	=126	=126	=126	=126	=126	=126	=126	=126	=126
2.ryy	.	2.ryy	.	2.ryy	.	2.ryy	2.r	.	0.r	.	2.ryy	2.ryy
=127	=127	=127	=127	=127	=127	=127	=127	=127	=127	=127	=127	=127
2.ryy	.	2.ryy	.	2.ryy	.	2.ryy	2.r	.	.	.	2.ryy	2.ryy
=128	=128	=128	=128	=128	=128	=128	=128	=128	=128	=128	=128	=128
2.ryy	.	2.ryy	.	2.ryy	.	2.ryy	2.r	.	.	.	2.ryy	2.ryy
=129	=129	=129	=129	=129	=129	=129	=129	=129	=129	=129	=129	=129
2.ryy	.	2.ryy	.	2.ryy	.	2.ryy	2.r	.	.	.	2.ryy	2.ryy
=130	=130	=130	=130	=130	=130	=130	=130	=130	=130	=130	=130	=130
2.ryy	.	2.ryy	.	2.ryy	.	2.ryy	2.r	.	0.r	.	2.ryy	2.ryy
=131	=131	=131	=131	=131	=131	=131	=131	=131	=131	=131	=131	=131
2.ryy	.	2.ryy	.	2.ryy	.	2.ryy	2.r	.	.	.	2.ryy	2.ryy
=132	=132	=132	=132	=132	=132	=132	=132	=132	=132	=132	=132	=132
2.ryy	.	2.ryy	.	2.ryy	.	2.ryy	2.r	.	.	.	2.ryy	2.ryy
=133	=133	=133	=133	=133	=133	=133	=133	=133	=133	=133	=133	=133
2.ryy	.	2.ryy	.	2.ryy	.	2.ryy	2.r	.	.	.	2.ryy	2.ryy
=134	=134	=134	=134	=134	=134	=134	=134	=134	=134	=134	=134	=134
2.ryy	.	2.ryy	.	2.ryy	.	2.ryy	2.r	.	0.r	.	2.ryy	2.ryy
=135	=135	=135	=135	=135	=135	=135	=135	=135	=135	=135	=135	=135
2.ryy	.	2.ryy	.	2.ryy	.	2.ryy	2.r	.	.	.	2.ryy	2.ryy
=136	=136	=136	=136	=136	=136	=136	=136	=136	=136	=136	=136	=136
2.ryy	.	2.ryy	.	2.ryy	.	2.ryy	2.r	.	.	.	2.ryy	2.ryy
=137	=137	=137	=137	=137	=137	=137	=137	=137	=137	=137	=137	=137
2.ryy	.	2.ryy	.	2.ryy	.	2.ryy	2.r	.	.	.	2.ryy	2.ryy
=138	=138	=138	=138	=138	=138	=138	=138	=138	=138	=138	=138	=138
2.ryy	.	2.ryy	.	2.ryy	.	2.ryy	2.r	.	0.r	.	2.ryy	2.ryy
=139	=139	=139	=139	=139	=139	=139	=139	=139	=139	=139	=139	=139
2.ryy	.	2.ryy	.	2.ryy	.	2.ryy	2.r	.	.	.	2.ryy	2.ryy
=140	=140	=140	=140	=140	=140	=140	=140	=140	=140	=140	=140	=140
2.ryy	.	2.ryy	.	2.ryy	.	2.ryy	2.r	.	.	.	2.ryy	2.ryy
=141	=141	=141	=141	=141	=141	=141	=141	=141	=141	=141	=141	=141
2.ryy	.	2.ryy	.	2.ryy	.	2.ryy	2.r	.	.	.	2.ryy	2.ryy
=142	=142	=142	=142	=142	=142	=142	=142	=142	=142	=142	=142	=142
2.ryy	.	2.ryy	.	2.ryy	.	2.ryy	2.r	.	0.r	.	2.ryy	2.ryy
=143	=143	=143	=143	=143	=143	=143	=143	=143	=143	=143	=143	=143
2.ryy	.	2.ryy	.	2.ryy	.	2.ryy	2.r	.	.	.	2.ryy	2.ryy
=144	=144	=144	=144	=144	=144	=144	=144	=144	=144	=144	=144	=144
2.ryy	.	2.ryy	.	2.ryy	.	2.ryy	2.r	.	.	.	2.ryy	2.ryy
=145	=145	=145	=145	=145	=145	=145	=145	=145	=145	=145	=145	=145
2.ryy	.	2.ryy	.	2.ryy	.	2.ryy	2.r	.	.	.	2.ryy	2.ryy
=146	=146	=146	=146	=146	=146	=146	=146	=146	=146	=146	=146	=146
2.ryy	.	2.ryy	.	2.ryy	.	2.ryy	2.r	.	0.r	.	2.ryy	2.ryy
=147	=147	=147	=147	=147	=147	=147	=147	=147	=147	=147	=147	=147
2.ryy	.	2.ryy	.	2.ryy	.	2.ryy	2.r	.	.	.	2.ryy	2.ryy
=148	=148	=148	=148	=148	=148	=148	=148	=148	=148	=148	=148	=148
2.ryy	.	2.ryy	.	2.ryy	.	2.ryy	2.r	.	.	.	2.ryy	2.ryy
=149	=149	=149	=149	=149	=149	=149	=149	=149	=149	=149	=149	=149
2.ryy	.	2.ryy	.	2.ryy	.	2.ryy	2.r	.	.	.	2.ryy	2.ryy
=150	=150	=150	=150	=150	=150	=150	=150	=150	=150	=150	=150	=150
2.ryy	.	2.ryy	.	2.ryy	.	2.ryy	2.r	.	0.r	.	2.ryy	2.ryy
=151	=151	=151	=151	=151	=151	=151	=151	=151	=151	=151	=151	=151
2.ryy	.	2.ryy	.	2.ryy	.	2.ryy	2.r	.	.	.	2.ryy	2.ryy
=152	=152	=152	=152	=152	=152	=152	=152	=152	=152	=152	=152	=152
2.ryy	.	2.ryy	.	2.ryy	.	2.ryy	2.r	.	.	.	2.ryy	2.ryy
=153	=153	=153	=153	=153	=153	=153	=153	=153	=153	=153	=153	=153
2.ryy	.	2.ryy	.	2.ryy	.	2.ryy	2.r	.	.	.	2.ryy	2.ryy
=154	=154	=154	=154	=154	=154	=154	=154	=154	=154	=154	=154	=154
2.ryy	.	2.ryy	.	2.ryy	.	2.ryy	2.r	.	0.r	.	2.ryy	2.ryy
=155	=155	=155	=155	=155	=155	=155	=155	=155	=155	=155	=155	=155
2.ryy	.	2.ryy	.	2.ryy	.	2.ryy	2.r	.	.	.	2.ryy	2.ryy
=156	=156	=156	=156	=156	=156	=156	=156	=156	=156	=156	=156	=156
2.ryy	.	2.ryy	.	2.ryy	.	2.ryy	2.r	.	.	.	2.ryy	2.ryy
=157	=157	=157	=157	=157	=157	=157	=157	=157	=157	=157	=157	=157
!	!	!	!	!	!	!	!	!	!LO:TX:b:t=Oſanna Da Capo.	!	!	!
2.ryy	.	2.ryy	.	2.ryy	.	2.ryy	2.r	.	.	.	2.ryy	2.ryy
==	==	==	==	==	==	==	==	==	==	==	==	==
*-	*-	*-	*-	*-	*-	*-	*-	*-	*-	*-	*-	*-
!!!system-decoration: [(s1,s2)][(s3,s4,s5)][(s6,s7)][(s8)]
!!!AIN: 1 bass 2 cor 1 organ 2 soprn 2 violn
!!!ENC: Marcin Jachim
!!!END: 2020-08-20
!!!ENC: Marta Lawrence
!!!END: 2021-11-08
